;FLAVOR:Marlin
;TIME:635
;Filament used: 0.93336m
;Layer height: 0.3
;MINX:-50.3
;MINY:-12.289
;MINZ:0.3
;MAXX:50.3
;MAXY:12.3
;MAXZ:6
;Generated with Cura_SteamEngine 4.11.0
M140 S60
M105
M190 S60
M104 S200
M105
M109 S200
M82 ;absolute extrusion mode
G21        ;metric values
G90        ;absolute positioning
M107       ;start with the fan off
G28   ;move to endstops
G92 E0                  ;zero the extruded length
G1 F200 E3              ;extrude 3mm of feed stock
G92 E0                  ;zero the extruded length again
G1 F120
;Put printing message on LCD screen
M117 Printing...
G92 E0
G92 E0
G1 F1500 E-6.5
;LAYER_COUNT:20
;LAYER:0
M107
;MESH:holder2.STL
G0 F3600 X47.1 Y-1.476 Z0.3
;TYPE:WALL-INNER
G1 F1500 E0
G1 F1800 X47.1 Y-9.834 E0.41698
G1 X49.7 Y-9.835 E0.5467
G1 X49.9 Y-9.835 E0.55667
G1 X49.9 Y-9.635 E0.56314
G1 X49.9 Y2.482 E1.16766
G1 X49.782 Y3.972 E1.24222
G1 X49.441 Y5.396 E1.31528
G1 X48.873 Y6.767 E1.38931
G1 X48.101 Y8.027 E1.46304
G1 X47.145 Y9.145 E1.53643
G1 X46.027 Y10.101 E1.60981
G1 X44.767 Y10.873 E1.68354
G1 X43.396 Y11.441 E1.75757
G1 X41.972 Y11.782 E1.83063
G1 X40.479 Y11.9 E1.90534
G1 X-40.479 Y11.9 E5.94436
G1 X-41.972 Y11.782 E6.01907
G1 X-43.396 Y11.441 E6.09213
G1 X-44.767 Y10.873 E6.16616
G1 X-46.027 Y10.101 E6.23989
G1 X-47.145 Y9.145 E6.31327
G1 X-48.101 Y8.027 E6.38666
G1 X-48.873 Y6.767 E6.46039
G1 X-49.441 Y5.396 E6.53442
G1 X-49.782 Y3.972 E6.60748
G1 X-49.9 Y2.482 E6.68204
G1 X-49.9 Y-9.834 E7.29649
G1 X-47.3 Y-9.835 E7.42621
G1 X-47.1 Y-9.835 E7.43618
G1 X-47.1 Y-9.635 E7.44265
G1 X-47.1 Y-1.476 E7.8497
G1 X-46.971 Y0.158 E7.93147
G1 X-46.584 Y1.776 E8.01447
G1 X-45.946 Y3.313 E8.0975
G1 X-45.077 Y4.732 E8.18051
G1 X-43.997 Y5.997 E8.2635
G1 X-42.732 Y7.077 E8.34648
G1 X-41.313 Y7.946 E8.42949
G1 X-39.776 Y8.584 E8.51252
G1 X-38.158 Y8.971 E8.59552
G1 X-36.524 Y9.1 E8.67729
G1 X36.524 Y9.1 E12.32167
G1 X38.158 Y8.971 E12.40345
G1 X39.776 Y8.584 E12.48645
G1 X41.313 Y7.946 E12.56947
G1 X42.732 Y7.077 E12.65249
G1 X43.997 Y5.997 E12.73547
G1 X45.077 Y4.732 E12.81845
G1 X45.946 Y3.313 E12.90147
G1 X46.584 Y1.776 E12.98449
G1 X46.971 Y0.158 E13.06749
G1 X47.1 Y-1.476 E13.14927
G0 F3600 X46.7 Y-1.492
;TYPE:WALL-OUTER
G1 F1800 X46.7 Y-10.234 E13.58541
G1 X50.1 Y-10.235 E13.75503
G1 X50.3 Y-10.235 E13.76501
G1 X50.3 Y-10.035 E13.77147
G1 X50.3 Y2.5 E14.39684
G1 X50.179 Y4.033 E14.47356
G1 X49.822 Y5.523 E14.55
G1 X49.232 Y6.947 E14.6269
G1 X48.425 Y8.263 E14.70392
G1 X47.429 Y9.429 E14.78043
G1 X46.263 Y10.425 E14.85693
G1 X44.947 Y11.232 E14.93395
G1 X43.523 Y11.822 E15.01085
G1 X42.033 Y12.179 E15.08729
G1 X40.497 Y12.3 E15.16416
G1 X-40.497 Y12.3 E19.20497
G1 X-42.033 Y12.179 E19.28184
G1 X-43.523 Y11.822 E19.35828
G1 X-44.947 Y11.232 E19.43518
G1 X-46.263 Y10.425 E19.51219
G1 X-47.429 Y9.429 E19.5887
G1 X-48.425 Y8.263 E19.6652
G1 X-49.232 Y6.947 E19.74222
G1 X-49.822 Y5.523 E19.81912
G1 X-50.179 Y4.033 E19.89556
G1 X-50.3 Y2.5 E19.97228
G1 X-50.3 Y-10.234 E20.60758
G1 X-46.9 Y-10.235 E20.77721
G1 X-46.7 Y-10.235 E20.78719
G1 X-46.7 Y-10.035 E20.79365
G1 X-46.7 Y-1.492 E21.21986
G1 X-46.575 Y0.095 E21.29928
G1 X-46.202 Y1.652 E21.37916
G1 X-45.589 Y3.131 E21.45903
G1 X-44.752 Y4.496 E21.53892
G1 X-43.713 Y5.713 E21.61875
G1 X-42.496 Y6.752 E21.69858
G1 X-41.131 Y7.589 E21.77847
G1 X-39.652 Y8.202 E21.85834
G1 X-38.095 Y8.575 E21.93822
G1 X-36.508 Y8.7 E22.01764
G1 X36.508 Y8.7 E25.66042
G1 X38.095 Y8.575 E25.73984
G1 X39.652 Y8.202 E25.81972
G1 X41.131 Y7.589 E25.8996
G1 X42.496 Y6.752 E25.97948
G1 X43.713 Y5.713 E26.05931
G1 X44.752 Y4.496 E26.13915
G1 X45.589 Y3.131 E26.21903
G1 X46.202 Y1.652 E26.2989
G1 X46.575 Y0.095 E26.37878
G1 X46.7 Y-1.492 E26.4582
G0 F3600 X46.7 Y-1.692
G0 X47.49 Y-1.461
;TYPE:SKIN
G1 F1800 X47.49 Y-9.444 E26.85648
G1 X49.51 Y-9.445 E26.95725
G1 X49.51 Y2.482 E27.55229
G1 X49.397 Y3.902 E27.62336
G1 X49.068 Y5.274 E27.69375
G1 X48.521 Y6.594 E27.76504
G1 X47.785 Y7.797 E27.8354
G1 X46.868 Y8.868 E27.90574
G1 X45.797 Y9.785 E27.97608
G1 X44.594 Y10.521 E28.04644
G1 X43.274 Y11.068 E28.11773
G1 X41.902 Y11.397 E28.18812
G1 X40.474 Y11.51 E28.25958
G1 X-40.474 Y11.51 E32.29809
G1 X-41.902 Y11.397 E32.36956
G1 X-43.274 Y11.068 E32.43995
G1 X-44.594 Y10.521 E32.51124
G1 X-45.797 Y9.785 E32.5816
G1 X-46.868 Y8.868 E32.65194
G1 X-47.785 Y7.797 E32.72228
G1 X-48.521 Y6.594 E32.79264
G1 X-49.068 Y5.274 E32.86392
G1 X-49.397 Y3.902 E32.93431
G1 X-49.51 Y2.482 E33.00538
G1 X-49.51 Y-9.444 E33.60037
G1 X-47.49 Y-9.445 E33.70115
G1 X-47.49 Y-1.461 E34.09947
G1 X-47.357 Y0.219 E34.18355
G1 X-46.956 Y1.897 E34.26963
G1 X-46.295 Y3.491 E34.35572
G1 X-45.393 Y4.962 E34.4418
G1 X-44.274 Y6.274 E34.52783
G1 X-42.962 Y7.393 E34.61386
G1 X-41.491 Y8.295 E34.69995
G1 X-39.897 Y8.956 E34.78604
G1 X-38.219 Y9.357 E34.87211
G1 X-36.539 Y9.49 E34.95619
G1 X36.539 Y9.49 E38.60207
G1 X38.219 Y9.357 E38.68615
G1 X39.897 Y8.956 E38.77222
G1 X41.491 Y8.295 E38.85831
G1 X42.962 Y7.393 E38.9444
G1 X44.274 Y6.274 E39.03043
G1 X45.393 Y4.962 E39.11646
G1 X46.295 Y3.491 E39.20254
G1 X46.956 Y1.897 E39.28864
G1 X47.357 Y0.219 E39.37471
G1 X47.49 Y-1.461 E39.45879
G0 F3600 X49.001 Y-9.263
G1 F1800 X49.329 Y-8.936 E39.48189
G0 F3600 X49.329 Y-8.37
G1 F1800 X48.436 Y-9.263 E39.5449
G0 F3600 X47.87 Y-9.263
G1 F1800 X49.329 Y-7.805 E39.64781
G0 F3600 X49.329 Y-7.239
G1 F1800 X47.668 Y-8.899 E39.76496
G0 F3600 X47.668 Y-8.333
G1 F1800 X49.329 Y-6.673 E39.88212
G0 F3600 X49.329 Y-6.107
G1 F1800 X47.668 Y-7.768 E39.99931
G0 F3600 X47.668 Y-7.202
G1 F1800 X49.329 Y-5.542 E40.11647
G0 F3600 X49.329 Y-4.976
G1 F1800 X47.668 Y-6.636 E40.23363
G0 F3600 X47.668 Y-6.071
G1 F1800 X49.329 Y-4.41 E40.35082
G0 F3600 X49.329 Y-3.845
G1 F1800 X47.668 Y-5.505 E40.46798
G0 F3600 X47.668 Y-4.939
G1 F1800 X49.329 Y-3.279 E40.58513
G0 F3600 X49.329 Y-2.713
G1 F1800 X47.668 Y-4.374 E40.70233
G0 F3600 X47.668 Y-3.808
G1 F1800 X49.329 Y-2.148 E40.81948
G0 F3600 X49.329 Y-1.582
G1 F1800 X47.668 Y-3.242 E40.93664
G0 F3600 X47.668 Y-2.677
G1 F1800 X49.329 Y-1.016 E41.05383
G0 F3600 X49.329 Y-.451
G1 F1800 X47.668 Y-2.111 E41.17099
G0 F3600 X47.668 Y-1.545
G1 F1800 X49.329 Y0.114 E41.28811
G0 F3600 X49.329 Y0.68
G1 F1800 X47.633 Y-1.015 E41.40774
G0 F3600 X47.591 Y-.491
G1 F1800 X49.329 Y1.245 E41.53029
G0 F3600 X49.329 Y1.811
G1 F1800 X47.55 Y0.033 E41.65578
G0 F3600 X47.469 Y0.517
G1 F1800 X49.329 Y2.377 E41.78701
G0 F3600 X49.295 Y2.909
G1 F1800 X47.36 Y0.974 E41.92353
G0 F3600 X47.251 Y1.431
G1 F1800 X49.253 Y3.433 E42.06479
G0 F3600 X49.201 Y3.946
G1 F1800 X47.142 Y1.887 E42.21006
G0 F3600 X46.984 Y2.295
G1 F1800 X49.091 Y4.402 E42.35872
G0 F3600 X48.982 Y4.859
G1 F1800 X46.818 Y2.695 E42.5114
G0 F3600 X46.652 Y3.095
G1 F1800 X48.86 Y5.302 E42.66715
G0 F3600 X48.694 Y5.702
G1 F1800 X46.487 Y3.495 E42.82287
G0 F3600 X46.281 Y3.855
G1 F1800 X48.528 Y6.102 E42.98141
G0 F3600 X48.363 Y6.502
G1 F1800 X46.066 Y4.205 E43.14347
G0 F3600 X45.851 Y4.556
G1 F1800 X48.149 Y6.854 E43.30561
G0 F3600 X47.935 Y7.206
G1 F1800 X45.636 Y4.907 E43.46782
G0 F3600 X45.396 Y5.233
G1 F1800 X47.72 Y7.556 E43.63175
G0 F3600 X47.477 Y7.879
G1 F1800 X45.136 Y5.538 E43.79692
G0 F3600 X44.875 Y5.843
G1 F1800 X47.216 Y8.184 E43.96209
G0 F3600 X46.955 Y8.488
G1 F1800 X44.615 Y6.149 E44.12716
G0 F3600 X44.348 Y6.447
G1 F1800 X46.686 Y8.785 E44.29211
G0 F3600 X46.381 Y9.046
G1 F1800 X44.042 Y6.707 E44.45714
G0 F3600 X43.737 Y6.967
G1 F1800 X46.076 Y9.306 E44.62217
G0 F3600 X45.772 Y9.568
G1 F1800 X43.431 Y7.228 E44.78731
G0 F3600 X43.127 Y7.488
G1 F1800 X45.433 Y9.795 E44.95004
G0 F3600 X45.082 Y10.009
G1 F1800 X42.784 Y7.712 E45.11214
G0 F3600 X42.434 Y7.928
G1 F1800 X44.731 Y10.224 E45.27418
G0 F3600 X44.361 Y10.42
G1 F1800 X42.084 Y8.143 E45.43483
G0 F3600 X41.733 Y8.358
G1 F1800 X43.962 Y10.586 E45.59206
G0 F3600 X43.562 Y10.752
G1 F1800 X41.356 Y8.546 E45.74771
G0 F3600 X40.956 Y8.712
G1 F1800 X43.155 Y10.911 E45.90286
G0 F3600 X42.699 Y11.02
G1 F1800 X40.556 Y8.878 E46.05402
G0 F3600 X40.156 Y9.043
G1 F1800 X42.242 Y11.129 E46.2012
G0 F3600 X41.773 Y11.226
G1 F1800 X39.728 Y9.181 E46.34549
G0 F3600 X39.272 Y9.29
G1 F1800 X41.249 Y11.267 E46.48498
G0 F3600 X40.725 Y11.309
G1 F1800 X38.815 Y9.399 E46.61974
G0 F3600 X38.358 Y9.508
G1 F1800 X40.179 Y11.329 E46.74822
G0 F3600 X39.614 Y11.329
G1 F1800 X37.85 Y9.566 E46.87264
G0 F3600 X37.326 Y9.608
G1 F1800 X39.048 Y11.329 E46.9941
G0 F3600 X38.482 Y11.329
G1 F1800 X36.802 Y9.649 E47.11264
G0 F3600 X36.256 Y9.669
G1 F1800 X37.917 Y11.329 E47.22979
G0 F3600 X37.351 Y11.329
G1 F1800 X35.691 Y9.669 E47.34692
G0 F3600 X35.125 Y9.669
G1 F1800 X36.785 Y11.329 E47.46404
G0 F3600 X36.22 Y11.329
G1 F1800 X34.559 Y9.669 E47.5812
G0 F3600 X33.994 Y9.669
G1 F1800 X35.654 Y11.329 E47.69832
G0 F3600 X35.088 Y11.329
G1 F1800 X33.428 Y9.669 E47.81544
G0 F3600 X32.862 Y9.669
G1 F1800 X34.523 Y11.329 E47.9326
G0 F3600 X33.957 Y11.329
G1 F1800 X32.297 Y9.669 E48.04972
G0 F3600 X31.731 Y9.669
G1 F1800 X33.391 Y11.329 E48.16684
G0 F3600 X32.826 Y11.329
G1 F1800 X31.165 Y9.669 E48.284
G0 F3600 X30.6 Y9.669
G1 F1800 X32.26 Y11.329 E48.40112
G0 F3600 X31.694 Y11.329
G1 F1800 X30.034 Y9.669 E48.51824
G0 F3600 X29.468 Y9.669
G1 F1800 X31.128 Y11.329 E48.63536
G0 F3600 X30.563 Y11.329
G1 F1800 X28.902 Y9.669 E48.75252
G0 F3600 X28.337 Y9.669
G1 F1800 X29.997 Y11.329 E48.86964
G0 F3600 X29.431 Y11.329
G1 F1800 X27.771 Y9.669 E48.98677
G0 F3600 X27.205 Y9.669
G1 F1800 X28.866 Y11.329 E49.10392
G0 F3600 X28.3 Y11.329
G1 F1800 X26.64 Y9.669 E49.22104
G0 F3600 X26.074 Y9.669
G1 F1800 X27.734 Y11.329 E49.33817
G0 F3600 X27.169 Y11.329
G1 F1800 X25.508 Y9.669 E49.45532
G0 F3600 X24.943 Y9.669
G1 F1800 X26.603 Y11.329 E49.57245
G0 F3600 X26.037 Y11.329
G1 F1800 X24.377 Y9.669 E49.68957
G0 F3600 X23.811 Y9.669
G1 F1800 X25.472 Y11.329 E49.80672
G0 F3600 X24.906 Y11.329
G1 F1800 X23.246 Y9.669 E49.92385
G0 F3600 X22.68 Y9.669
G1 F1800 X24.34 Y11.329 E50.04097
G0 F3600 X23.775 Y11.329
G1 F1800 X22.114 Y9.669 E50.15813
G0 F3600 X21.549 Y9.669
G1 F1800 X23.209 Y11.329 E50.27525
G0 F3600 X22.643 Y11.329
G1 F1800 X20.983 Y9.669 E50.39237
G0 F3600 X20.417 Y9.669
G1 F1800 X22.077 Y11.329 E50.50949
G0 F3600 X21.512 Y11.329
G1 F1800 X19.852 Y9.669 E50.62661
G0 F3600 X19.286 Y9.669
G1 F1800 X20.946 Y11.329 E50.74374
G0 F3600 X20.38 Y11.329
G1 F1800 X18.72 Y9.669 E50.86086
G0 F3600 X18.154 Y9.669
G1 F1800 X19.815 Y11.329 E50.97801
G0 F3600 X19.249 Y11.329
G1 F1800 X17.589 Y9.669 E51.09514
G0 F3600 X17.023 Y9.669
G1 F1800 X18.683 Y11.329 E51.21226
G0 F3600 X18.118 Y11.329
G1 F1800 X16.457 Y9.669 E51.32942
G0 F3600 X15.892 Y9.669
G1 F1800 X17.552 Y11.329 E51.44654
G0 F3600 X16.986 Y11.329
G1 F1800 X15.326 Y9.669 E51.56366
G0 F3600 X14.76 Y9.669
G1 F1800 X16.421 Y11.329 E51.68082
G0 F3600 X15.855 Y11.329
G1 F1800 X14.195 Y9.669 E51.79794
G0 F3600 X13.629 Y9.669
G1 F1800 X15.289 Y11.329 E51.91506
G0 F3600 X14.724 Y11.329
G1 F1800 X13.063 Y9.669 E52.03222
G0 F3600 X12.498 Y9.669
G1 F1800 X14.158 Y11.329 E52.14934
G0 F3600 X13.592 Y11.329
G1 F1800 X11.932 Y9.669 E52.26646
G0 F3600 X11.366 Y9.669
G1 F1800 X13.027 Y11.329 E52.38362
G0 F3600 X12.461 Y11.329
G1 F1800 X10.801 Y9.669 E52.50074
G0 F3600 X10.235 Y9.669
G1 F1800 X11.895 Y11.329 E52.61786
G0 F3600 X11.329 Y11.329
G1 F1800 X9.669 Y9.669 E52.73499
G0 F3600 X9.103 Y9.669
G1 F1800 X10.764 Y11.329 E52.85214
G0 F3600 X10.198 Y11.329
G1 F1800 X8.538 Y9.669 E52.96926
G0 F3600 X7.972 Y9.669
G1 F1800 X9.632 Y11.329 E53.08639
G0 F3600 X9.067 Y11.329
G1 F1800 X7.406 Y9.669 E53.20354
G0 F3600 X6.841 Y9.669
G1 F1800 X8.501 Y11.329 E53.32067
G0 F3600 X7.935 Y11.329
G1 F1800 X6.275 Y9.669 E53.43779
G0 F3600 X5.709 Y9.669
G1 F1800 X7.37 Y11.329 E53.55495
G0 F3600 X6.804 Y11.329
G1 F1800 X5.144 Y9.669 E53.67207
G0 F3600 X4.578 Y9.669
G1 F1800 X6.238 Y11.329 E53.78919
G0 F3600 X5.673 Y11.329
G1 F1800 X4.012 Y9.669 E53.90635
G0 F3600 X3.447 Y9.669
G1 F1800 X5.107 Y11.329 E54.02347
G0 F3600 X4.541 Y11.329
G1 F1800 X2.881 Y9.669 E54.14059
G0 F3600 X2.315 Y9.669
G1 F1800 X3.976 Y11.329 E54.25775
G0 F3600 X3.41 Y11.329
G1 F1800 X1.75 Y9.669 E54.37487
G0 F3600 X1.184 Y9.669
G1 F1800 X2.844 Y11.329 E54.49199
G0 F3600 X2.279 Y11.329
G1 F1800 X0.618 Y9.669 E54.60915
G0 F3600 X0.053 Y9.669
G1 F1800 X1.713 Y11.329 E54.72627
G0 F3600 X1.147 Y11.329
G1 F1800 X-.512 Y9.669 E54.84336
G0 F3600 X-1.078 Y9.669
G1 F1800 X0.581 Y11.329 E54.96044
G0 F3600 X0.016 Y11.329
G1 F1800 X-1.644 Y9.669 E55.07757
G0 F3600 X-2.209 Y9.669
G1 F1800 X-.549 Y11.329 E55.19469
G0 F3600 X-1.115 Y11.329
G1 F1800 X-2.775 Y9.669 E55.31181
G0 F3600 X-3.341 Y9.669
G1 F1800 X-1.68 Y11.329 E55.42897
G0 F3600 X-2.246 Y11.329
G1 F1800 X-3.906 Y9.669 E55.54609
G0 F3600 X-4.472 Y9.669
G1 F1800 X-2.812 Y11.329 E55.66321
G0 F3600 X-3.377 Y11.329
G1 F1800 X-5.038 Y9.669 E55.78037
G0 F3600 X-5.603 Y9.669
G1 F1800 X-3.943 Y11.329 E55.89749
G0 F3600 X-4.509 Y11.329
G1 F1800 X-6.169 Y9.669 E56.01461
G0 F3600 X-6.735 Y9.669
G1 F1800 X-5.074 Y11.329 E56.13177
G0 F3600 X-5.64 Y11.329
G1 F1800 X-7.3 Y9.669 E56.24889
G0 F3600 X-7.866 Y9.669
G1 F1800 X-6.206 Y11.329 E56.36601
G0 F3600 X-6.771 Y11.329
G1 F1800 X-8.432 Y9.669 E56.48317
G0 F3600 X-8.997 Y9.669
G1 F1800 X-7.337 Y11.329 E56.60029
G0 F3600 X-7.903 Y11.329
G1 F1800 X-9.563 Y9.669 E56.71741
G0 F3600 X-10.129 Y9.669
G1 F1800 X-8.469 Y11.329 E56.83454
G0 F3600 X-9.034 Y11.329
G1 F1800 X-10.694 Y9.669 E56.95166
G0 F3600 X-11.26 Y9.669
G1 F1800 X-9.6 Y11.329 E57.06878
G0 F3600 X-10.166 Y11.329
G1 F1800 X-11.826 Y9.669 E57.1859
G0 F3600 X-12.392 Y9.669
G1 F1800 X-10.731 Y11.329 E57.30306
G0 F3600 X-11.297 Y11.329
G1 F1800 X-12.957 Y9.669 E57.42018
G0 F3600 X-13.523 Y9.669
G1 F1800 X-11.863 Y11.329 E57.5373
G0 F3600 X-12.428 Y11.329
G1 F1800 X-14.089 Y9.669 E57.65446
G0 F3600 X-14.654 Y9.669
G1 F1800 X-12.994 Y11.329 E57.77158
G0 F3600 X-13.56 Y11.329
G1 F1800 X-15.22 Y9.669 E57.8887
G0 F3600 X-15.786 Y9.669
G1 F1800 X-14.125 Y11.329 E58.00586
G0 F3600 X-14.691 Y11.329
G1 F1800 X-16.351 Y9.669 E58.12298
G0 F3600 X-16.917 Y9.669
G1 F1800 X-15.257 Y11.329 E58.24011
G0 F3600 X-15.822 Y11.329
G1 F1800 X-17.483 Y9.669 E58.35726
G0 F3600 X-18.048 Y9.669
G1 F1800 X-16.388 Y11.329 E58.47439
G0 F3600 X-16.954 Y11.329
G1 F1800 X-18.614 Y9.669 E58.59151
G0 F3600 X-19.18 Y9.669
G1 F1800 X-17.519 Y11.329 E58.70866
G0 F3600 X-18.085 Y11.329
G1 F1800 X-19.745 Y9.669 E58.82579
G0 F3600 X-20.311 Y9.669
G1 F1800 X-18.651 Y11.329 E58.94291
G0 F3600 X-19.217 Y11.329
G1 F1800 X-20.877 Y9.669 E59.06003
G0 F3600 X-21.443 Y9.669
G1 F1800 X-19.782 Y11.329 E59.17719
G0 F3600 X-20.348 Y11.329
G1 F1800 X-22.008 Y9.669 E59.29431
G0 F3600 X-22.574 Y9.669
G1 F1800 X-20.914 Y11.329 E59.41143
G0 F3600 X-21.479 Y11.329
G1 F1800 X-23.14 Y9.669 E59.52859
G0 F3600 X-23.705 Y9.669
G1 F1800 X-22.045 Y11.329 E59.64571
G0 F3600 X-22.611 Y11.329
G1 F1800 X-24.271 Y9.669 E59.76283
G0 F3600 X-24.837 Y9.669
G1 F1800 X-23.176 Y11.329 E59.87999
G0 F3600 X-23.742 Y11.329
G1 F1800 X-25.402 Y9.669 E59.99711
G0 F3600 X-25.968 Y9.669
G1 F1800 X-24.308 Y11.329 E60.11423
G0 F3600 X-24.873 Y11.329
G1 F1800 X-26.534 Y9.669 E60.23139
G0 F3600 X-27.099 Y9.669
G1 F1800 X-25.439 Y11.329 E60.34851
G0 F3600 X-26.005 Y11.329
G1 F1800 X-27.665 Y9.669 E60.46564
G0 F3600 X-28.231 Y9.669
G1 F1800 X-26.57 Y11.329 E60.58279
G0 F3600 X-27.136 Y11.329
G1 F1800 X-28.796 Y9.669 E60.69991
G0 F3600 X-29.362 Y9.669
G1 F1800 X-27.702 Y11.329 E60.81704
G0 F3600 X-28.268 Y11.329
G1 F1800 X-29.928 Y9.669 E60.93416
G0 F3600 X-30.493 Y9.669
G1 F1800 X-28.833 Y11.329 E61.05128
G0 F3600 X-29.399 Y11.329
G1 F1800 X-31.059 Y9.669 E61.1684
