;FLAVOR:Marlin
;TIME:2652
;Filament used: 3.91302m
;Layer height: 0.3
;MINX:-39.3
;MINY:-37.8
;MINZ:0.3
;MAXX:39.3
;MAXY:37.8
;MAXZ:21.9
;Generated with Cura_SteamEngine 4.11.0
M140 S60
M105
M190 S60
M104 S200
M105
M109 S200
M82 ;absolute extrusion mode
G21        ;metric values
G90        ;absolute positioning
M107       ;start with the fan off
G28   ;move to endstops
G92 E0                  ;zero the extruded length
G1 F200 E3              ;extrude 3mm of feed stock
G92 E0                  ;zero the extruded length again
G1 F120
;Put printing message on LCD screen
M117 Printing...
G92 E0
G92 E0
G1 F1500 E-6.5
;LAYER_COUNT:73
;LAYER:0
M107
;MESH:holder wio.STL
G0 F3600 X30.1 Y16.6 Z0.3
;TYPE:WALL-INNER
G1 F1500 E0
G1 F1800 X30.1 Y-4.598 E1.05757
G1 X30.022 Y-5.522 E1.10384
G1 X29.78 Y-6.443 E1.15134
G1 X29.387 Y-7.31 E1.19883
G1 X28.868 Y-8.077 E1.24504
G1 X24.641 Y-13.294 E1.58003
G1 X24.022 Y-13.941 E1.6247
G1 X23.286 Y-14.494 E1.67063
G1 X22.467 Y-14.918 E1.71664
G1 X21.591 Y-15.202 E1.76258
G1 X20.679 Y-15.338 E1.80858
G1 X19.758 Y-15.325 E1.85454
G1 X18.851 Y-15.16 E1.90053
G1 X18.009 Y-14.856 E1.94519
G1 X1.841 Y-7.497 E2.83144
G1 X1.116 Y-7.239 E2.86983
G1 X0.377 Y-7.112 E2.90724
G1 X-.377 Y-7.112 E2.94486
G1 X-1.116 Y-7.239 E2.98227
G1 X-1.841 Y-7.497 E3.02066
G1 X-18.009 Y-14.856 E3.90691
G1 X-18.851 Y-15.16 E3.95157
G1 X-19.758 Y-15.325 E3.99757
G1 X-20.679 Y-15.338 E4.04352
G1 X-21.591 Y-15.202 E4.08952
G1 X-22.467 Y-14.918 E4.13547
G1 X-23.286 Y-14.494 E4.18148
G1 X-24.022 Y-13.941 E4.22741
G1 X-24.641 Y-13.294 E4.27208
G1 X-28.868 Y-8.077 E4.60707
G1 X-29.387 Y-7.31 E4.65327
G1 X-29.78 Y-6.443 E4.70076
G1 X-30.022 Y-5.522 E4.74827
G1 X-30.1 Y-4.598 E4.79453
G1 X-30.1 Y16.6 E5.8521
G1 X30.1 Y16.6 E8.85549
G0 F3600 X30.17 Y16.67
G0 X11.627 Y25.679
G0 X10.941 Y26.214
G0 X7.454 Y31.562
G0 X0.00 Y37.372
G0 X0.00 Y37.272
G1 F1800 X0.297 Y37.031 E8.87458
G1 X2.735 Y35.056 E9.03111
G1 X3.212 Y34.552 E9.06573
G1 X3.603 Y33.962 E9.10104
G1 X3.885 Y33.315 E9.13626
G1 X4.054 Y32.629 E9.1715
G1 X4.101 Y31.923 E9.2068
G1 X4.027 Y31.221 E9.24202
G1 X3.834 Y30.542 E9.27724
G1 X3.527 Y29.904 E9.31256
G1 X3.115 Y29.331 E9.34777
G1 X2.61 Y28.835 E9.38309
G1 X2.029 Y28.435 E9.41828
G1 X1.387 Y28.139 E9.45355
G1 X0.704 Y27.958 E9.4888
G1 X0.00 Y27.898 E9.52405
G1 X-.704 Y27.958 E9.5593
G1 X-1.387 Y28.139 E9.59455
G1 X-2.029 Y28.435 E9.62982
G1 X-2.61 Y28.835 E9.66501
G1 X-3.115 Y29.331 E9.70033
G1 X-3.527 Y29.904 E9.73553
G1 X-3.834 Y30.542 E9.77086
G1 X-4.027 Y31.221 E9.80608
G1 X-4.101 Y31.923 E9.84129
G1 X-4.054 Y32.629 E9.87659
G1 X-3.885 Y33.315 E9.91184
G1 X-3.603 Y33.962 E9.94705
G1 X-3.212 Y34.552 E9.98237
G1 X-2.735 Y35.056 E10.01699
G1 X-.297 Y37.031 E10.17352
G1 X0.00 Y37.272 E10.1926
G0 F3600 X0.00 Y37.372
G0 X2.762 Y35.085
G0 X3.638 Y33.981
G0 X11.418 Y16.634
G0 X30.128 Y16.628
G0 X30.313 Y-17.68
G0 X29.725 Y-19.221
G0 X29.61 Y-20.098
G0 X29.632 Y-20.983
G0 X29.793 Y-21.853
G0 X30.089 Y-22.688
G0 X30.511 Y-23.465
G0 X31.05 Y-24.167
G0 X36.331 Y-28.609
G0 X36.381 Y-28.523
G1 F1800 X31.699 Y-24.73 E10.49322
G1 X31.079 Y-24.141 E10.53589
G1 X30.544 Y-23.444 E10.57972
G1 X30.125 Y-22.672 E10.62354
G1 X29.831 Y-21.843 E10.66743
G1 X29.671 Y-20.979 E10.71127
G1 X29.649 Y-20.1 E10.75513
G1 X29.764 Y-19.229 E10.79896
G1 X30.013 Y-18.386 E10.84282
G1 X30.392 Y-17.592 E10.88671
G1 X30.877 Y-16.887 E10.9294
G1 X37.91 Y-8.206 E11.4868
G1 X38.335 Y-7.578 E11.52463
G1 X38.643 Y-6.899 E11.56183
G1 X38.835 Y-6.168 E11.59953
G1 X38.9 Y-5.403 E11.63784
G1 X38.9 Y23.968 E13.10316
G1 X38.825 Y24.435 E13.12676
G1 X38.628 Y24.82 E13.14834
G1 X38.32 Y25.128 E13.17007
G1 X37.935 Y25.325 E13.19164
G1 X37.465 Y25.4 E13.21539
G1 X12.852 Y25.401 E14.44334
G1 X12.459 Y25.433 E14.46301
G1 X12.041 Y25.54 E14.48453
G1 X11.646 Y25.714 E14.50607
G1 X11.276 Y25.958 E14.52818
G1 X10.97 Y26.241 E14.54897
G1 X10.722 Y26.562 E14.56921
G1 X4.11 Y36.73 E15.17432
G1 X3.769 Y37.101 E15.19946
G1 X3.356 Y37.326 E15.22292
G1 X2.891 Y37.4 E15.24641
G1 X0.383 Y37.4 E15.37154
G1 X0.00 Y37.4 E15.38453
G1 X-.383 Y37.4 E15.39752
G1 X-2.891 Y37.4 E15.52265
G1 X-3.128 Y37.381 E15.53451
G1 X-3.579 Y37.226 E15.5583
G1 X-3.955 Y36.931 E15.58215
G1 X-4.107 Y36.735 E15.59452
G1 X-10.729 Y26.552 E16.20053
G1 X-10.972 Y26.239 E16.22029
G1 X-11.298 Y25.942 E16.2423
G1 X-11.646 Y25.713 E16.26308
G1 X-12.041 Y25.54 E16.28459
G1 X-12.459 Y25.433 E16.30612
G1 X-12.864 Y25.4 E16.32639
G1 X-37.465 Y25.4 E17.55374
G1 X-37.935 Y25.325 E17.57749
G1 X-38.32 Y25.128 E17.59906
G1 X-38.628 Y24.82 E17.62079
G1 X-38.825 Y24.435 E17.64237
G1 X-38.9 Y23.968 E17.66597
G1 X-38.9 Y-5.403 E19.13129
G1 X-38.835 Y-6.168 E19.1696
G1 X-38.643 Y-6.899 E19.2073
G1 X-38.335 Y-7.578 E19.2445
G1 X-37.91 Y-8.206 E19.28233
G1 X-30.877 Y-16.887 E19.83973
G1 X-30.392 Y-17.592 E19.88242
G1 X-30.013 Y-18.386 E19.92631
G1 X-29.764 Y-19.229 E19.97017
G1 X-29.649 Y-20.1 E20.014
G1 X-29.671 Y-20.979 E20.05786
G1 X-29.831 Y-21.843 E20.1017
G1 X-30.125 Y-22.672 E20.14559
G1 X-30.544 Y-23.444 E20.18941
G1 X-31.079 Y-24.141 E20.23324
G1 X-31.699 Y-24.73 E20.27591
G1 X-36.381 Y-28.523 E20.57653
G1 X-37.008 Y-28.775 E20.61024
G1 X-37.472 Y-29.053 E20.63723
G1 X-37.884 Y-29.398 E20.66404
G1 X-38.238 Y-29.806 E20.69099
G1 X-38.52 Y-30.261 E20.71769
G1 X-38.729 Y-30.759 E20.74464
G1 X-38.856 Y-31.282 E20.77149
G1 X-38.9 Y-31.845 E20.79966
G1 X-38.9 Y-35.968 E21.00536
G1 X-38.825 Y-36.435 E21.02896
G1 X-38.628 Y-36.82 E21.05053
G1 X-38.32 Y-37.128 E21.07226
G1 X-37.935 Y-37.325 E21.09384
G1 X-37.465 Y-37.4 E21.11758
G1 X-31.217 Y-37.4 E21.4293
G1 X-30.708 Y-37.362 E21.45476
G1 X-30.214 Y-37.253 E21.48
G1 X-29.805 Y-37.096 E21.50186
G1 X-9.561 Y-20.695 E22.8017
G1 X-8.819 Y-20.19 E22.84648
G1 X-7.983 Y-19.802 E22.89246
G1 X-7.094 Y-19.557 E22.93847
G1 X-6.177 Y-19.461 E22.98446
G1 X-5.257 Y-19.516 E23.03045
G1 X-4.405 Y-19.711 E23.07405
G1 X-2.204 Y-20.229 E23.18686
G1 X0.00 Y-20.399 E23.29714
G1 X2.204 Y-20.229 E23.40743
G1 X4.435 Y-19.704 E23.52177
G1 X5.257 Y-19.516 E23.56384
G1 X6.177 Y-19.461 E23.60982
G1 X7.094 Y-19.557 E23.65582
G1 X7.983 Y-19.802 E23.70183
G1 X8.819 Y-20.19 E23.74781
G1 X9.561 Y-20.695 E23.79259
G1 X29.805 Y-37.096 E25.09243
G1 X30.214 Y-37.253 E25.11429
G1 X30.708 Y-37.362 E25.13952
G1 X31.217 Y-37.4 E25.16499
G1 X37.465 Y-37.4 E25.4767
G1 X37.935 Y-37.325 E25.50045
G1 X38.32 Y-37.128 E25.52203
G1 X38.628 Y-36.82 E25.54376
G1 X38.825 Y-36.435 E25.56533
G1 X38.9 Y-35.968 E25.58893
G1 X38.9 Y-31.839 E25.79493
G1 X38.855 Y-31.282 E25.82281
G1 X38.729 Y-30.759 E25.84964
G1 X38.52 Y-30.261 E25.87659
G1 X38.238 Y-29.806 E25.9033
G1 X37.884 Y-29.398 E25.93024
G1 X37.472 Y-29.053 E25.95705
G1 X37.008 Y-28.775 E25.98404
G1 X36.381 Y-28.523 E26.01775
G0 F3600 X36.586 Y-28.174
;TYPE:WALL-OUTER
G1 F1800 X31.963 Y-24.429 E26.31458
G1 X31.377 Y-23.873 E26.35488
G1 X30.881 Y-23.226 E26.39555
G1 X30.492 Y-22.509 E26.43625
G1 X30.219 Y-21.739 E26.47701
G1 X30.07 Y-20.937 E26.5177
G1 X30.05 Y-20.121 E26.55843
G1 X30.156 Y-19.312 E26.59913
G1 X30.388 Y-18.53 E26.63983
G1 X30.739 Y-17.793 E26.68055
G1 X31.198 Y-17.127 E26.72091
G1 X38.227 Y-8.45 E27.27802
G1 X38.685 Y-7.774 E27.31876
G1 X39.022 Y-7.031 E27.35946
G1 X39.231 Y-6.233 E27.40062
G1 X39.3 Y-5.425 E27.44107
G1 X39.3 Y24 E28.90909
G1 X39.21 Y24.56 E28.93739
G1 X38.955 Y25.059 E28.96535
G1 X38.559 Y25.455 E28.99329
G1 X38.06 Y25.71 E29.02125
G1 X37.497 Y25.8 E29.04969
G1 X12.868 Y25.801 E30.27844
G1 X12.525 Y25.829 E30.2956
G1 X12.172 Y25.919 E30.31378
G1 X11.838 Y26.066 E30.33199
G1 X11.524 Y26.274 E30.35078
G1 X11.266 Y26.512 E30.36829
G1 X11.048 Y26.794 E30.38607
G1 X4.424 Y36.98 E30.99226
G1 X4.021 Y37.419 E31.02199
G1 X3.504 Y37.7 E31.05134
G1 X3.208 Y37.776 E31.06659
G1 X2.911 Y37.8 E31.08146
G1 X-2.911 Y37.8 E31.37192
G1 X-3.208 Y37.776 E31.38678
G1 X-3.772 Y37.582 E31.41654
G1 X-4.244 Y37.213 E31.44643
G1 X-4.424 Y36.98 E31.46112
G1 X-11.055 Y26.784 E32.06791
G1 X-11.267 Y26.512 E32.08512
G1 X-11.544 Y26.259 E32.10383
G1 X-11.838 Y26.066 E32.12138
G1 X-12.172 Y25.919 E32.13959
G1 X-12.525 Y25.829 E32.15776
G1 X-12.88 Y25.8 E32.17553
G1 X-37.497 Y25.8 E33.40368
G1 X-38.06 Y25.71 E33.43212
G1 X-38.559 Y25.455 E33.46008
G1 X-38.955 Y25.059 E33.48802
G1 X-39.21 Y24.56 E33.51598
G1 X-39.3 Y24 E33.54427
G1 X-39.3 Y-5.425 E35.01229
G1 X-39.231 Y-6.233 E35.05275
G1 X-39.022 Y-7.031 E35.09391
G1 X-38.685 Y-7.774 E35.13461
G1 X-38.227 Y-8.45 E35.17535
G1 X-31.198 Y-17.127 E35.73246
G1 X-30.739 Y-17.793 E35.77281
G1 X-30.388 Y-18.53 E35.81354
G1 X-30.156 Y-19.312 E35.85423
G1 X-30.05 Y-20.121 E35.89494
G1 X-30.07 Y-20.937 E35.93566
G1 X-30.219 Y-21.739 E35.97636
G1 X-30.492 Y-22.509 E36.01712
G1 X-30.881 Y-23.226 E36.05782
G1 X-31.377 Y-23.873 E36.09849
G1 X-31.963 Y-24.429 E36.13879
G1 X-36.586 Y-28.174 E36.43561
G1 X-37.185 Y-28.415 E36.46783
G1 X-37.705 Y-28.726 E36.49805
G1 X-38.166 Y-29.113 E36.52808
G1 X-38.56 Y-29.567 E36.55807
G1 X-38.878 Y-30.081 E36.58823
G1 X-39.11 Y-30.633 E36.6181
G1 X-39.252 Y-31.219 E36.64818
G1 X-39.3 Y-31.827 E36.67861
G1 X-39.3 Y-36 E36.8868
G1 X-39.21 Y-36.56 E36.9151
G1 X-38.955 Y-37.059 E36.94306
G1 X-38.559 Y-37.455 E36.971
G1 X-38.06 Y-37.71 E36.99895
G1 X-37.497 Y-37.8 E37.0274
G1 X-31.201 Y-37.8 E37.34151
G1 X-30.647 Y-37.759 E37.36922
G1 X-30.106 Y-37.639 E37.39687
G1 X-29.6 Y-37.445 E37.42391
G1 X-9.322 Y-21.016 E38.72594
G1 X-8.621 Y-20.539 E38.76825
G1 X-7.845 Y-20.179 E38.81092
G1 X-7.019 Y-19.951 E38.85367
G1 X-6.168 Y-19.862 E38.89636
G1 X-5.314 Y-19.913 E38.93904
G1 X-4.496 Y-20.101 E38.98092
G1 X-2.262 Y-20.626 E39.09541
G1 X0.00 Y-20.8 E39.20859
G1 X2.262 Y-20.626 E39.32178
G1 X4.526 Y-20.094 E39.43781
G1 X5.314 Y-19.913 E39.47814
G1 X6.168 Y-19.862 E39.52083
G1 X7.019 Y-19.951 E39.56351
G1 X7.845 Y-20.179 E39.60627
G1 X8.621 Y-20.539 E39.64894
G1 X9.322 Y-21.016 E39.69125
G1 X29.6 Y-37.445 E40.99328
G1 X30.106 Y-37.639 E41.02032
G1 X30.647 Y-37.759 E41.04797
G1 X31.201 Y-37.8 E41.07568
G1 X37.497 Y-37.8 E41.38979
G1 X38.06 Y-37.71 E41.41823
G1 X38.559 Y-37.455 E41.44619
G1 X38.955 Y-37.059 E41.47413
G1 X39.21 Y-36.56 E41.50209
G1 X39.3 Y-36 E41.53039
G1 X39.3 Y-31.82 E41.73893
G1 X39.252 Y-31.219 E41.76901
G1 X39.11 Y-30.633 E41.79909
G1 X38.878 Y-30.081 E41.82896
G1 X38.56 Y-29.567 E41.85912
G1 X38.166 Y-29.113 E41.88911
G1 X37.705 Y-28.726 E41.91914
G1 X37.185 Y-28.415 E41.94936
G1 X36.586 Y-28.174 E41.98158
G0 F3600 X36.431 Y-28.049
G0 X36.118 Y-28.437
G0 X31.673 Y-24.76
G0 X31.05 Y-24.167
G0 X30.511 Y-23.465
G0 X30.089 Y-22.688
G0 X29.793 Y-21.853
G0 X29.632 Y-20.983
G0 X29.61 Y-20.098
G0 X29.725 Y-19.221
G0 X29.976 Y-18.372
G0 X30.2 Y16.2
G0 X29.7 Y16.2
G1 F1800 X29.7 Y-4.581 E43.01834
G1 X29.626 Y-5.454 E43.06206
G1 X29.402 Y-6.309 E43.10615
G1 X29.037 Y-7.114 E43.15025
G1 X28.546 Y-7.839 E43.19393
G1 X24.341 Y-13.029 E43.52718
G1 X23.756 Y-13.641 E43.56942
G1 X23.072 Y-14.154 E43.61208
G1 X22.312 Y-14.548 E43.65479
G1 X21.499 Y-14.811 E43.69742
G1 X20.652 Y-14.938 E43.74015
G1 X19.797 Y-14.926 E43.78281
G1 X18.956 Y-14.772 E43.82546
G1 X18.16 Y-14.485 E43.86768
G1 X1.991 Y-7.126 E44.75397
G1 X1.219 Y-6.851 E44.79486
G1 X0.41 Y-6.712 E44.83581
G1 X-.41 Y-6.712 E44.87672
G1 X-1.219 Y-6.851 E44.91767
G1 X-1.991 Y-7.126 E44.95856
G1 X-18.16 Y-14.485 E45.84485
G1 X-18.956 Y-14.772 E45.88707
G1 X-19.797 Y-14.926 E45.92972
G1 X-20.652 Y-14.938 E45.97238
G1 X-21.499 Y-14.811 E46.01511
G1 X-22.312 Y-14.548 E46.05774
G1 X-23.072 Y-14.154 E46.10045
G1 X-23.756 Y-13.641 E46.14311
G1 X-24.341 Y-13.029 E46.18535
G1 X-28.546 Y-7.839 E46.5186
G1 X-29.037 Y-7.114 E46.56228
G1 X-29.402 Y-6.309 E46.60638
G1 X-29.626 Y-5.454 E46.65047
G1 X-29.7 Y-4.581 E46.69418
G1 X-29.7 Y16.2 E47.73095
G1 X29.7 Y16.2 E50.69443
G0 F3600 X29.7 Y16
G0 X30.2 Y16
G0 X11.627 Y25.679
G0 X10.941 Y26.214
G0 X2.762 Y35.085
G0 X0.00 Y37.312
G0 X0.00 Y36.757
G1 F1800 X2.463 Y34.762 E50.85256
G1 X2.898 Y34.302 E50.88415
G1 X3.25 Y33.77 E50.91597
G1 X3.505 Y33.186 E50.94777
G1 X3.657 Y32.567 E50.97957
G1 X3.7 Y31.931 E51.01137
G1 X3.633 Y31.297 E51.04317
G1 X3.459 Y30.684 E51.07497
G1 X3.182 Y30.109 E51.10681
G1 X2.81 Y29.592 E51.13858
G1 X2.355 Y29.145 E51.17041
G1 X1.83 Y28.784 E51.20219
G1 X1.251 Y28.517 E51.234
G1 X0.635 Y28.354 E51.26579
G1 X0.00 Y28.299 E51.29759
G1 X-.635 Y28.354 E51.32939
G1 X-1.251 Y28.517 E51.36118
G1 X-1.83 Y28.784 E51.39299
G1 X-2.355 Y29.145 E51.42478
G1 X-2.81 Y29.592 E51.4566
G1 X-3.182 Y30.109 E51.48838
G1 X-3.459 Y30.684 E51.52022
G1 X-3.633 Y31.297 E51.55201
G1 X-3.7 Y31.931 E51.58381
G1 X-3.657 Y32.567 E51.61562
G1 X-3.505 Y33.186 E51.64742
G1 X-3.25 Y33.77 E51.67921
G1 X-2.898 Y34.302 E51.71103
G1 X-2.463 Y34.762 E51.74262
G1 X0.00 Y36.757 E51.90075
G0 F3600 X0.155 Y36.632
G0 X0.943 Y37.01
;TYPE:SKIN
G1 F1800 X3 Y35.343 E52.03285
G1 X3.518 Y34.796 E52.07043
G1 X3.947 Y34.149 E52.10916
G1 X4.256 Y33.44 E52.14775
G1 X4.44 Y32.689 E52.18632
G1 X4.493 Y31.915 E52.22503
G1 X4.411 Y31.147 E52.26356
G1 X4.2 Y30.403 E52.30214
G1 X3.864 Y29.704 E52.34084
G1 X3.412 Y29.076 E52.37944
G1 X2.859 Y28.533 E52.4181
G1 X2.222 Y28.095 E52.45667
G1 X1.52 Y27.771 E52.49524
G1 X0.771 Y27.572 E52.53391
G1 X0.00 Y27.506 E52.57251
G1 X-.771 Y27.572 E52.61112
G1 X-1.52 Y27.771 E52.64979
G1 X-2.222 Y28.095 E52.68836
G1 X-2.859 Y28.533 E52.72693
G1 X-3.412 Y29.076 E52.76559
G1 X-3.864 Y29.704 E52.80419
G1 X-4.2 Y30.403 E52.84289
G1 X-4.411 Y31.147 E52.88147
G1 X-4.493 Y31.915 E52.92
G1 X-4.44 Y32.689 E52.95871
G1 X-4.256 Y33.44 E52.99728
G1 X-3.947 Y34.149 E53.03587
G1 X-3.518 Y34.796 E53.0746
G1 X-3 Y35.343 E53.11218
G1 X-.943 Y37.01 E53.24428
G1 X-2.884 Y37.01 E53.34111
G1 X-3.044 Y36.997 E53.34912
G1 X-3.393 Y36.877 E53.36754
G1 X-3.674 Y36.657 E53.38534
G1 X-3.785 Y36.513 E53.39441
G1 X-10.411 Y26.326 E54.00069
G1 X-10.685 Y25.974 E54.02295
G1 X-11.058 Y25.634 E54.04813
G1 X-11.459 Y25.369 E54.07211
G1 X-11.914 Y25.17 E54.09688
G1 X-12.395 Y25.047 E54.12165
G1 X-12.848 Y25.01 E54.14433
G1 X-37.429 Y25.01 E55.37068
G1 X-37.815 Y24.949 E55.39018
G1 X-38.09 Y24.808 E55.40559
G1 X-38.309 Y24.589 E55.42104
G1 X-38.449 Y24.314 E55.43644
G1 X-38.51 Y23.937 E55.45549
G1 X-38.51 Y-5.403 E56.91927
G1 X-38.45 Y-6.1 E56.95417
G1 X-38.275 Y-6.766 E56.98853
G1 X-37.992 Y-7.39 E57.02271
G1 X-37.596 Y-7.974 E57.05792
G1 X-30.565 Y-16.653 E57.61517
G1 X-30.053 Y-17.397 E57.66023
G1 X-29.648 Y-18.246 E57.70716
G1 X-29.382 Y-19.147 E57.75403
G1 X-29.259 Y-20.079 E57.80093
G1 X-29.281 Y-21.02 E57.84789
G1 X-29.453 Y-21.944 E57.89478
G1 X-29.768 Y-22.832 E57.94178
G1 X-30.216 Y-23.657 E57.98862
G1 X-30.788 Y-24.402 E58.03548
G1 X-31.442 Y-25.023 E58.08047
G1 X-36.181 Y-28.863 E58.38478
G1 X-36.832 Y-29.125 E58.41979
G1 X-37.25 Y-29.375 E58.44409
G1 X-37.61 Y-29.677 E58.46753
G1 X-37.922 Y-30.036 E58.49126
G1 X-38.175 Y-30.445 E58.51525
G1 X-38.357 Y-30.878 E58.53869
G1 X-38.471 Y-31.348 E58.56282
G1 X-38.51 Y-31.845 E58.58769
G1 X-38.51 Y-35.937 E58.79184
G1 X-38.449 Y-36.314 E58.81089
G1 X-38.309 Y-36.589 E58.82629
G1 X-38.09 Y-36.808 E58.84174
G1 X-37.815 Y-36.949 E58.85716
G1 X-37.429 Y-37.01 E58.87665
G1 X-31.22 Y-37.01 E59.18642
G1 X-30.772 Y-36.977 E59.20883
G1 X-30.325 Y-36.878 E59.23167
G1 X-30.004 Y-36.755 E59.24882
G1 X-9.793 Y-20.381 E60.54654
G1 X-9.012 Y-19.849 E60.59368
G1 X-8.118 Y-19.435 E60.64284
G1 X-7.166 Y-19.173 E60.6921
G1 X-6.185 Y-19.069 E60.74131
G1 X-5.202 Y-19.128 E60.79044
G1 X-4.317 Y-19.331 E60.83574
G1 X-2.135 Y-19.844 E60.94757
G1 X0.00 Y-20.009 E61.0544
G1 X2.135 Y-19.844 E61.16124
G1 X4.347 Y-19.324 E61.2746
G1 X5.202 Y-19.128 E61.31837
