;FLAVOR:Marlin
;TIME:1609
;Filament used: 2.2633m
;Layer height: 0.3
;MINX:-49.8
;MINY:-49.8
;MINZ:0.3
;MAXX:49.8
;MAXY:49.8
;MAXZ:20.1
;Generated with Cura_SteamEngine 4.11.0
M140 S60
M105
M190 S60
M104 S200
M105
M109 S200
M82 ;absolute extrusion mode
G21        ;metric values
G90        ;absolute positioning
M107       ;start with the fan off
G28   ;move to endstops
G92 E0                  ;zero the extruded length
G1 F200 E3              ;extrude 3mm of feed stock
G92 E0                  ;zero the extruded length again
G1 F120
;Put printing message on LCD screen
M117 Printing...
G92 E0
G92 E0
G1 F1500 E-6.5
;LAYER_COUNT:67
;LAYER:0
M107
;MESH:holder3.STL
G0 F3600 X-47.409 Y-34.441 Z0.3
;TYPE:WALL-INNER
G1 F1500 E0
G1 F1800 X-47.6 Y-32.024 E0.12096
G1 X-47.6 Y49.4 E4.18322
G1 X-49.4 Y49.4 E4.27302
G1 X-49.4 Y-34.981 E8.48281
G1 X-49.22 Y-37.255 E8.59661
G1 X-48.696 Y-39.441 E8.70876
G1 X-47.828 Y-41.537 E8.82194
G1 X-46.646 Y-43.466 E8.93481
G1 X-45.181 Y-45.181 E9.04734
G1 X-43.466 Y-46.646 E9.15987
G1 X-41.537 Y-47.828 E9.27274
G1 X-39.441 Y-48.696 E9.38592
G1 X-37.255 Y-49.22 E9.49807
G1 X-34.979 Y-49.4 E9.61198
G1 X49.4 Y-49.4 E13.82166
G1 X49.4 Y-47.6 E13.91146
G1 X-32.024 Y-47.6 E17.97372
G1 X-34.441 Y-47.409 E18.09468
G1 X-36.821 Y-46.839 E18.21678
G1 X-39.083 Y-45.901 E18.33895
G1 X-41.171 Y-44.622 E18.46111
G1 X-43.033 Y-43.033 E18.58323
G1 X-44.622 Y-41.171 E18.70536
G1 X-45.901 Y-39.083 E18.82752
G1 X-46.839 Y-36.821 E18.94969
G1 X-47.409 Y-34.441 E19.07179
G0 F3600 X-47.013 Y-34.378
;TYPE:WALL-OUTER
G1 F1800 X-47.2 Y-32.008 E19.19039
G1 X-47.2 Y49.8 E23.27181
G1 X-49.8 Y49.8 E23.40152
G1 X-49.8 Y-35 E27.63221
G1 X-49.617 Y-37.316 E27.74812
G1 X-49.077 Y-39.568 E27.86366
G1 X-48.187 Y-41.717 E27.9797
G1 X-46.97 Y-43.702 E28.09587
G1 X-45.465 Y-45.465 E28.21151
G1 X-43.702 Y-46.97 E28.32716
G1 X-41.717 Y-48.187 E28.44332
G1 X-39.568 Y-49.077 E28.55937
G1 X-37.316 Y-49.617 E28.6749
G1 X-34.997 Y-49.8 E28.79096
G1 X49.8 Y-49.8 E33.0215
G1 X49.8 Y-47.2 E33.15121
G1 X-32.008 Y-47.2 E37.23263
G1 X-34.378 Y-47.013 E37.35124
G1 X-36.697 Y-46.457 E37.47021
G1 X-38.901 Y-45.544 E37.58923
G1 X-40.935 Y-44.297 E37.70826
G1 X-42.749 Y-42.749 E37.82723
G1 X-44.297 Y-40.935 E37.94621
G1 X-45.544 Y-38.901 E38.06524
G1 X-46.457 Y-36.697 E38.18426
G1 X-47.013 Y-34.378 E38.30323
G0 F3600 X-47.028 Y-34.179
G0 X-47.795 Y-34.502
;TYPE:SKIN
G1 F1800 X-47.99 Y-32.04 E38.42645
G1 X-47.99 Y49.01 E42.47005
G1 X-49.01 Y49.01 E42.52093
G1 X-49.01 Y-34.981 E46.71126
G1 X-48.834 Y-37.191 E46.82187
G1 X-48.326 Y-39.313 E46.93073
G1 X-47.476 Y-41.364 E47.04149
G1 X-46.327 Y-43.24 E47.15124
G1 X-44.905 Y-44.905 E47.26048
G1 X-43.24 Y-46.327 E47.36972
G1 X-41.364 Y-47.476 E47.47948
G1 X-39.313 Y-48.326 E47.59024
G1 X-37.191 Y-48.834 E47.6991
G1 X-34.974 Y-49.01 E47.81005
G1 X49.01 Y-49.01 E52.00003
G1 X49.01 Y-47.99 E52.05092
G1 X-32.04 Y-47.99 E56.09452
G1 X-34.502 Y-47.795 E56.21774
G1 X-36.942 Y-47.211 E56.34291
G1 X-39.261 Y-46.25 E56.46814
G1 X-41.401 Y-44.938 E56.59338
G1 X-43.31 Y-43.31 E56.71855
G1 X-44.938 Y-41.401 E56.84372
G1 X-46.25 Y-39.261 E56.96895
G1 X-47.211 Y-36.942 E57.09418
G1 X-47.795 Y-34.502 E57.21936
G0 F3600 X-48.468 Y48.829
G1 F1800 X-48.829 Y48.467 E57.24486
G0 F3600 X-48.829 Y47.902
G1 F1800 X-48.169 Y48.562 E57.29143
G0 F3600 X-48.169 Y47.996
G1 F1800 X-48.829 Y47.336 E57.33799
G0 F3600 X-48.829 Y46.77
G1 F1800 X-48.169 Y47.431 E57.3846
G0 F3600 X-48.169 Y46.865
G1 F1800 X-48.829 Y46.205 E57.43116
G0 F3600 X-48.829 Y45.639
G1 F1800 X-48.169 Y46.299 E57.47773
G0 F3600 X-48.169 Y45.734
G1 F1800 X-48.829 Y45.073 E57.52433
G0 F3600 X-48.829 Y44.508
G1 F1800 X-48.169 Y45.168 E57.5709
G0 F3600 X-48.169 Y44.602
G1 F1800 X-48.829 Y43.942 E57.61746
G0 F3600 X-48.829 Y43.376
G1 F1800 X-48.169 Y44.037 E57.66407
G0 F3600 X-48.169 Y43.471
G1 F1800 X-48.829 Y42.811 E57.71063
G0 F3600 X-48.829 Y42.245
G1 F1800 X-48.169 Y42.905 E57.7572
G0 F3600 X-48.169 Y42.34
G1 F1800 X-48.829 Y41.679 E57.8038
G0 F3600 X-48.829 Y41.114
G1 F1800 X-48.169 Y41.774 E57.85037
G0 F3600 X-48.169 Y41.208
G1 F1800 X-48.829 Y40.548 E57.89693
G0 F3600 X-48.829 Y39.982
G1 F1800 X-48.169 Y40.643 E57.94354
G0 F3600 X-48.169 Y40.077
G1 F1800 X-48.829 Y39.416 E57.99014
G0 F3600 X-48.829 Y38.851
G1 F1800 X-48.169 Y39.511 E58.0367
G0 F3600 X-48.169 Y38.946
G1 F1800 X-48.829 Y38.285 E58.08331
G0 F3600 X-48.829 Y37.719
G1 F1800 X-48.169 Y38.38 E58.12991
G0 F3600 X-48.169 Y37.814
G1 F1800 X-48.829 Y37.154 E58.17647
G0 F3600 X-48.829 Y36.588
G1 F1800 X-48.169 Y37.248 E58.22304
G0 F3600 X-48.169 Y36.683
G1 F1800 X-48.829 Y36.022 E58.26964
G0 F3600 X-48.829 Y35.457
G1 F1800 X-48.169 Y36.117 E58.31621
G0 F3600 X-48.169 Y35.551
G1 F1800 X-48.829 Y34.891 E58.36278
G0 F3600 X-48.829 Y34.325
G1 F1800 X-48.169 Y34.986 E58.40938
G0 F3600 X-48.169 Y34.42
G1 F1800 X-48.829 Y33.76 E58.45594
G0 F3600 X-48.829 Y33.194
G1 F1800 X-48.169 Y33.854 E58.50251
G0 F3600 X-48.169 Y33.289
G1 F1800 X-48.829 Y32.628 E58.54911
G0 F3600 X-48.829 Y32.063
G1 F1800 X-48.169 Y32.723 E58.59568
G0 F3600 X-48.169 Y32.157
G1 F1800 X-48.829 Y31.497 E58.64225
G0 F3600 X-48.829 Y30.931
G1 F1800 X-48.169 Y31.592 E58.68885
G0 F3600 X-48.169 Y31.026
G1 F1800 X-48.829 Y30.365 E58.73545
G0 F3600 X-48.829 Y29.8
G1 F1800 X-48.169 Y30.46 E58.78202
G0 F3600 X-48.169 Y29.895
G1 F1800 X-48.829 Y29.234 E58.82862
G0 F3600 X-48.829 Y28.668
G1 F1800 X-48.169 Y29.329 E58.87522
G0 F3600 X-48.169 Y28.763
G1 F1800 X-48.829 Y28.103 E58.92179
G0 F3600 X-48.829 Y27.537
G1 F1800 X-48.169 Y28.198 E58.96839
G0 F3600 X-48.169 Y27.632
G1 F1800 X-48.829 Y26.971 E59.01499
G0 F3600 X-48.829 Y26.406
G1 F1800 X-48.169 Y27.066 E59.06156
G0 F3600 X-48.169 Y26.5
G1 F1800 X-48.829 Y25.84 E59.10812
G0 F3600 X-48.829 Y25.274
G1 F1800 X-48.169 Y25.935 E59.15473
G0 F3600 X-48.169 Y25.369
G1 F1800 X-48.829 Y24.709 E59.20129
G0 F3600 X-48.829 Y24.143
G1 F1800 X-48.169 Y24.803 E59.24786
G0 F3600 X-48.169 Y24.238
G1 F1800 X-48.829 Y23.577 E59.29446
G0 F3600 X-48.829 Y23.012
G1 F1800 X-48.169 Y23.672 E59.34103
G0 F3600 X-48.169 Y23.106
G1 F1800 X-48.829 Y22.446 E59.38759
G0 F3600 X-48.829 Y21.88
G1 F1800 X-48.169 Y22.541 E59.4342
G0 F3600 X-48.169 Y21.975
G1 F1800 X-48.829 Y21.315 E59.48076
G0 F3600 X-48.829 Y20.749
G1 F1800 X-48.169 Y21.409 E59.52733
G0 F3600 X-48.169 Y20.844
G1 F1800 X-48.829 Y20.183 E59.57393
G0 F3600 X-48.829 Y19.617
G1 F1800 X-48.169 Y20.278 E59.62053
G0 F3600 X-48.169 Y19.712
G1 F1800 X-48.829 Y19.052 E59.6671
G0 F3600 X-48.829 Y18.486
G1 F1800 X-48.169 Y19.147 E59.7137
G0 F3600 X-48.169 Y18.581
G1 F1800 X-48.829 Y17.92 E59.7603
G0 F3600 X-48.829 Y17.355
G1 F1800 X-48.169 Y18.015 E59.80687
G0 F3600 X-48.169 Y17.449
G1 F1800 X-48.829 Y16.789 E59.85344
G0 F3600 X-48.829 Y16.223
G1 F1800 X-48.169 Y16.884 E59.90004
G0 F3600 X-48.169 Y16.318
G1 F1800 X-48.829 Y15.658 E59.9466
G0 F3600 X-48.829 Y15.092
G1 F1800 X-48.169 Y15.752 E59.99317
G0 F3600 X-48.169 Y15.187
G1 F1800 X-48.829 Y14.526 E60.03977
G0 F3600 X-48.829 Y13.961
G1 F1800 X-48.169 Y14.621 E60.08634
G0 F3600 X-48.169 Y14.055
G1 F1800 X-48.829 Y13.395 E60.13291
G0 F3600 X-48.829 Y12.829
G1 F1800 X-48.169 Y13.49 E60.17951
G0 F3600 X-48.169 Y12.924
G1 F1800 X-48.829 Y12.264 E60.22607
G0 F3600 X-48.829 Y11.698
G1 F1800 X-48.169 Y12.358 E60.27264
G0 F3600 X-48.169 Y11.793
G1 F1800 X-48.829 Y11.132 E60.31924
G0 F3600 X-48.829 Y10.567
G1 F1800 X-48.169 Y11.227 E60.36581
G0 F3600 X-48.169 Y10.661
G1 F1800 X-48.829 Y10.001 E60.41238
G0 F3600 X-48.829 Y9.435
G1 F1800 X-48.169 Y10.096 E60.45898
G0 F3600 X-48.169 Y9.53
G1 F1800 X-48.829 Y8.869 E60.50558
G0 F3600 X-48.829 Y8.304
G1 F1800 X-48.169 Y8.964 E60.55215
G0 F3600 X-48.169 Y8.399
G1 F1800 X-48.829 Y7.738 E60.59875
G0 F3600 X-48.829 Y7.172
G1 F1800 X-48.169 Y7.833 E60.64535
G0 F3600 X-48.169 Y7.267
G1 F1800 X-48.829 Y6.607 E60.69192
G0 F3600 X-48.829 Y6.041
G1 F1800 X-48.169 Y6.701 E60.73848
G0 F3600 X-48.169 Y6.136
G1 F1800 X-48.829 Y5.475 E60.78508
G0 F3600 X-48.829 Y4.91
G1 F1800 X-48.169 Y5.57 E60.83165
G0 F3600 X-48.169 Y5.004
G1 F1800 X-48.829 Y4.344 E60.87822
G0 F3600 X-48.829 Y3.778
G1 F1800 X-48.169 Y4.439 E60.92482
G0 F3600 X-48.169 Y3.873
G1 F1800 X-48.829 Y3.213 E60.97139
G0 F3600 X-48.829 Y2.647
G1 F1800 X-48.169 Y3.307 E61.01795
G0 F3600 X-48.169 Y2.742
G1 F1800 X-48.829 Y2.081 E61.06455
G0 F3600 X-48.829 Y1.516
G1 F1800 X-48.169 Y2.176 E61.11112
G0 F3600 X-48.169 Y1.61
G1 F1800 X-48.829 Y0.95 E61.15769
G0 F3600 X-48.829 Y0.384
G1 F1800 X-48.169 Y1.045 E61.20429
G0 F3600 X-48.169 Y0.479
G1 F1800 X-48.829 Y-.181 E61.25086
G0 F3600 X-48.829 Y-.746
G1 F1800 X-48.169 Y-0.086 E61.29742
G0 F3600 X-48.169 Y-.651
G1 F1800 X-48.829 Y-1.312 E61.34402
G0 F3600 X-48.829 Y-1.878
G1 F1800 X-48.169 Y-1.217 E61.39063
G0 F3600 X-48.169 Y-1.783
G1 F1800 X-48.829 Y-2.443 E61.43719
G0 F3600 X-48.829 Y-3.009
G1 F1800 X-48.169 Y-2.349 E61.48376
G0 F3600 X-48.169 Y-2.914
G1 F1800 X-48.829 Y-3.575 E61.53036
G0 F3600 X-48.829 Y-4.14
G1 F1800 X-48.169 Y-3.48 E61.57693
G0 F3600 X-48.169 Y-4.046
G1 F1800 X-48.829 Y-4.706 E61.62349
G0 F3600 X-48.829 Y-5.272
G1 F1800 X-48.169 Y-4.611 E61.6701
G0 F3600 X-48.169 Y-5.177
G1 F1800 X-48.829 Y-5.837 E61.71666
G0 F3600 X-48.829 Y-6.403
G1 F1800 X-48.169 Y-5.743 E61.76323
G0 F3600 X-48.169 Y-6.308
G1 F1800 X-48.829 Y-6.969 E61.80983
G0 F3600 X-48.829 Y-7.534
G1 F1800 X-48.169 Y-6.874 E61.8564
G0 F3600 X-48.169 Y-7.44
G1 F1800 X-48.829 Y-8.1 E61.90296
G0 F3600 X-48.829 Y-8.666
G1 F1800 X-48.169 Y-8.005 E61.94957
G0 F3600 X-48.169 Y-8.571
G1 F1800 X-48.829 Y-9.231 E61.99613
G0 F3600 X-48.829 Y-9.797
G1 F1800 X-48.169 Y-9.137 E62.0427
G0 F3600 X-48.169 Y-9.702
G1 F1800 X-48.829 Y-10.363 E62.0893
G0 F3600 X-48.829 Y-10.929
G1 F1800 X-48.169 Y-10.268 E62.1359
G0 F3600 X-48.169 Y-10.834
G1 F1800 X-48.829 Y-11.494 E62.18247
G0 F3600 X-48.829 Y-12.06
G1 F1800 X-48.169 Y-11.399 E62.22907
G0 F3600 X-48.169 Y-11.965
G1 F1800 X-48.829 Y-12.626 E62.27567
G0 F3600 X-48.829 Y-13.191
G1 F1800 X-48.169 Y-12.531 E62.32224
G0 F3600 X-48.169 Y-13.097
G1 F1800 X-48.829 Y-13.757 E62.36881
G0 F3600 X-48.829 Y-14.323
G1 F1800 X-48.169 Y-13.662 E62.41541
G0 F3600 X-48.169 Y-14.228
G1 F1800 X-48.829 Y-14.888 E62.46197
G0 F3600 X-48.829 Y-15.454
G1 F1800 X-48.169 Y-14.794 E62.50854
G0 F3600 X-48.169 Y-15.359
G1 F1800 X-48.829 Y-16.02 E62.55514
G0 F3600 X-48.829 Y-16.585
G1 F1800 X-48.169 Y-15.925 E62.60171
G0 F3600 X-48.169 Y-16.491
G1 F1800 X-48.829 Y-17.151 E62.64828
G0 F3600 X-48.829 Y-17.717
G1 F1800 X-48.169 Y-17.056 E62.69488
G0 F3600 X-48.169 Y-17.622
G1 F1800 X-48.829 Y-18.282 E62.74144
G0 F3600 X-48.829 Y-18.848
G1 F1800 X-48.169 Y-18.188 E62.78801
G0 F3600 X-48.169 Y-18.753
G1 F1800 X-48.829 Y-19.414 E62.83461
G0 F3600 X-48.829 Y-19.98
G1 F1800 X-48.169 Y-19.319 E62.88122
G0 F3600 X-48.169 Y-19.885
G1 F1800 X-48.829 Y-20.545 E62.92778
G0 F3600 X-48.829 Y-21.111
G1 F1800 X-48.169 Y-20.45 E62.97438
G0 F3600 X-48.169 Y-21.016
G1 F1800 X-48.829 Y-21.677 E63.02099
G0 F3600 X-48.829 Y-22.242
G1 F1800 X-48.169 Y-21.582 E63.06755
G0 F3600 X-48.169 Y-22.147
G1 F1800 X-48.829 Y-22.808 E63.11415
G0 F3600 X-48.829 Y-23.374
G1 F1800 X-48.169 Y-22.713 E63.16076
G0 F3600 X-48.169 Y-23.279
G1 F1800 X-48.829 Y-23.939 E63.20732
G0 F3600 X-48.829 Y-24.505
G1 F1800 X-48.169 Y-23.845 E63.25389
G0 F3600 X-48.169 Y-24.41
G1 F1800 X-48.829 Y-25.071 E63.30049
G0 F3600 X-48.829 Y-25.636
G1 F1800 X-48.169 Y-24.976 E63.34706
G0 F3600 X-48.169 Y-25.542
G1 F1800 X-48.829 Y-26.202 E63.39362
G0 F3600 X-48.829 Y-26.768
G1 F1800 X-48.169 Y-26.107 E63.44023
G0 F3600 X-48.169 Y-26.673
G1 F1800 X-48.829 Y-27.333 E63.48679
G0 F3600 X-48.829 Y-27.899
G1 F1800 X-48.169 Y-27.239 E63.53336
G0 F3600 X-48.169 Y-27.804
G1 F1800 X-48.829 Y-28.465 E63.57996
G0 F3600 X-48.829 Y-29.03
G1 F1800 X-48.169 Y-28.37 E63.62653
G0 F3600 X-48.169 Y-28.936
G1 F1800 X-48.829 Y-29.596 E63.67309
G0 F3600 X-48.829 Y-30.162
G1 F1800 X-48.169 Y-29.501 E63.7197
G0 F3600 X-48.169 Y-30.067
G1 F1800 X-48.829 Y-30.728 E63.7663
G0 F3600 X-48.829 Y-31.293
G1 F1800 X-48.169 Y-30.633 E63.81286
G0 F3600 X-48.169 Y-31.198
G1 F1800 X-48.829 Y-31.859 E63.85947
G0 F3600 X-48.829 Y-32.425
G1 F1800 X-48.169 Y-31.764 E63.90607
G0 F3600 X-48.148 Y-32.309
G1 F1800 X-48.829 Y-32.99 E63.95412
G0 F3600 X-48.829 Y-33.556
G1 F1800 X-48.106 Y-32.833 E64.00513
G0 F3600 X-48.064 Y-33.357
G1 F1800 X-48.829 Y-34.122 E64.0591
G0 F3600 X-48.829 Y-34.687
G1 F1800 X-48.023 Y-33.881 E64.11597
G0 F3600 X-47.982 Y-34.405
G1 F1800 X-48.81 Y-35.233 E64.17439
G0 F3600 X-48.768 Y-35.757
G1 F1800 X-47.888 Y-34.878 E64.23644
G0 F3600 X-47.779 Y-35.334
G1 F1800 X-48.726 Y-36.281 E64.30326
G0 F3600 X-48.684 Y-36.804
G1 F1800 X-47.671 Y-35.791 E64.37473
G0 F3600 X-47.561 Y-36.247
G1 F1800 X-48.62 Y-37.306 E64.44945
G0 F3600 X-48.511 Y-37.763
G1 F1800 X-47.452 Y-36.704 E64.52417
G0 F3600 X-47.323 Y-37.14
G1 F1800 X-48.401 Y-38.219 E64.60026
G0 F3600 X-48.291 Y-38.675
G1 F1800 X-47.156 Y-37.54 E64.68034
G0 F3600 X-46.991 Y-37.94
G1 F1800 X-48.182 Y-39.131 E64.76437
G0 F3600 X-48.032 Y-39.547
G1 F1800 X-46.826 Y-38.34 E64.8495
G0 F3600 X-46.659 Y-38.74
G1 F1800 X-47.866 Y-39.947 E64.93466
G0 F3600 X-47.701 Y-40.347
G1 F1800 X-46.494 Y-39.14 E65.01982
G0 F3600 X-46.304 Y-39.515
G1 F1800 X-47.535 Y-40.747 E65.10671
G0 F3600 X-47.369 Y-41.147
G1 F1800 X-46.089 Y-39.866 E65.19706
G0 F3600 X-45.874 Y-40.217
G1 F1800 X-47.171 Y-41.514 E65.28857
G0 F3600 X-46.956 Y-41.865
G1 F1800 X-45.659 Y-40.568 E65.38008
G0 F3600 X-45.444 Y-40.918
G1 F1800 X-46.742 Y-42.217 E65.47169
G0 F3600 X-46.527 Y-42.567
G1 F1800 X-45.229 Y-41.269 E65.56327
G0 F3600 X-44.999 Y-41.605
G1 F1800 X-46.312 Y-42.918 E65.65591
G0 F3600 X-46.08 Y-43.252
G1 F1800 X-44.739 Y-41.91 E65.75056
G0 F3600 X-44.478 Y-42.215
G1 F1800 X-45.819 Y-43.557 E65.84521
G0 F3600 X-45.558 Y-43.861
G1 F1800 X-44.218 Y-42.521 E65.93976
G0 F3600 X-43.958 Y-42.826
G1 F1800 X-45.298 Y-44.167 E66.03434
G0 F3600 X-45.037 Y-44.472
G1 F1800 X-43.697 Y-43.132 E66.12888
G0 F3600 X-43.437 Y-43.437
G1 F1800 X-44.776 Y-44.776 E66.22335
G0 F3600 X-44.471 Y-45.037
G1 F1800 X-43.132 Y-43.698 E66.31783
G0 F3600 X-42.827 Y-43.958
G1 F1800 X-44.166 Y-45.297 E66.4123
G0 F3600 X-43.861 Y-45.558
G1 F1800 X-42.521 Y-44.218 E66.50685
G0 F3600 X-42.216 Y-44.479
G1 F1800 X-43.556 Y-45.819 E66.60139
G0 F3600 X-43.251 Y-46.08
G1 F1800 X-41.911 Y-44.74 E66.69593
G0 F3600 X-41.606 Y-45
G1 F1800 X-42.917 Y-46.311 E66.78843
G0 F3600 X-42.567 Y-46.526
G1 F1800 X-41.27 Y-45.23 E66.87991
G0 F3600 X-40.919 Y-45.445
G1 F1800 X-42.216 Y-46.741 E66.97138
G0 F3600 X-41.864 Y-46.956
G1 F1800 X-40.568 Y-45.66 E67.06282
G0 F3600 X-40.218 Y-45.874
G1 F1800 X-41.514 Y-47.171 E67.1543
G0 F3600 X-41.146 Y-47.369
G1 F1800 X-39.867 Y-46.089 E67.24457
G0 F3600 X-39.516 Y-46.304
G1 F1800 X-40.746 Y-47.534 E67.33136
G0 F3600 X-40.346 Y-47.7
G1 F1800 X-39.14 Y-46.494 E67.41645
G0 F3600 X-38.74 Y-46.66
G1 F1800 X-39.946 Y-47.866 E67.50154
G0 F3600 X-39.546 Y-48.031
G1 F1800 X-38.34 Y-46.826 E67.58659
G0 F3600 X-37.941 Y-46.992
G1 F1800 X-39.13 Y-48.181 E67.67048
G0 F3600 X-38.674 Y-48.291
G1 F1800 X-37.541 Y-47.157 E67.75046
G0 F3600 X-37.141 Y-47.323
G1 F1800 X-38.218 Y-48.4 E67.82644
G0 F3600 X-37.762 Y-48.51
G1 F1800 X-36.705 Y-47.453 E67.90102
G0 F3600 X-36.248 Y-47.562
G1 F1800 X-37.306 Y-48.619 E67.97563
G0 F3600 X-36.804 Y-48.683
G1 F1800 X-35.791 Y-47.671 E68.04707
G0 F3600 X-35.335 Y-47.78
G1 F1800 X-36.28 Y-48.725 E68.11375
G0 F3600 X-35.756 Y-48.767
G1 F1800 X-34.878 Y-47.889 E68.17569
G0 F3600 X-34.406 Y-47.982
G1 F1800 X-35.231 Y-48.808 E68.23394
G0 F3600 X-34.687 Y-48.829
