;FLAVOR:Marlin
;TIME:658
;Filament used: 0.99601m
;Layer height: 0.3
;MINX:-17.281
;MINY:-22.195
;MINZ:0.3
;MAXX:17.281
;MAXY:23.232
;MAXZ:9.9
;Generated with Cura_SteamEngine 4.11.0
M140 S60
M105
M190 S60
M104 S200
M105
M109 S200
M82 ;absolute extrusion mode
G21        ;metric values
G90        ;absolute positioning
M107       ;start with the fan off
G28   ;move to endstops
G92 E0                  ;zero the extruded length
G1 F200 E3              ;extrude 3mm of feed stock
G92 E0                  ;zero the extruded length again
G1 F120
;Put printing message on LCD screen
M117 Printing...
G92 E0
G92 E0
G1 F1500 E-6.5
;LAYER_COUNT:33
;LAYER:0
M107
G0 F3600 X0.061 Y18.815 Z0.3
;TYPE:SUPPORT
G1 F1500 E0
G1 F1800 X0.357 Y18.929 E0.01582
G1 X0.509 Y19.118 E0.02793
G1 X0.576 Y19.308 E0.03798
G1 X0.576 Y19.505 E0.0478
G1 X0.492 Y19.741 E0.0603
G1 X0.31 Y19.901 E0.07239
G1 X0.12 Y19.976 E0.08258
G1 X-.129 Y19.986 E0.09502
G1 X-.394 Y19.85 E0.10988
G1 X-.533 Y19.646 E0.12219
G1 X-.584 Y19.452 E0.1322
G1 X-.567 Y19.261 E0.14177
G1 X-.484 Y19.077 E0.15184
G1 X-.35 Y18.937 E0.16151
G1 X-.166 Y18.844 E0.17179
G1 X0.061 Y18.815 E0.18321
G0 F3600 X0.00 Y18.984
G1 F1800 X0.00 Y19.821 E0.22497
G0 F3600 X-1.08 Y23.148
G1 F1800 X-1.126 Y23.232 E0.22974
G1 X-2.182 Y22.667 E0.28949
G1 X-2.311 Y22.536 E0.29867
G1 X-2.104 Y22.69 E0.31154
G1 X-1.617 Y22.954 E0.33918
G1 X-1.08 Y23.148 E0.36766
G1 F1500 E-6.13234
;MESH:holder.STL
G0 F3600 X-.587 Y21.711
G1 F1500 E0.36766
G0 F3600 X-.632 Y21.412
;TYPE:WALL-INNER
G1 F1800 X-.528 Y21.434 E0.37297
G1 X-.25 Y21.494 E0.38715
G1 X-.211 Y21.493 E0.3891
G1 X0.184 Y21.476 E0.40883
G1 X0.444 Y21.465 E0.42181
G1 X0.479 Y21.451 E0.42369
G1 X0.839 Y21.307 E0.44303
G1 X1.104 Y21.2 E0.45729
G1 X1.113 Y21.192 E0.45789
G1 X1.416 Y20.925 E0.47804
G1 X1.625 Y20.741 E0.49193
G1 X1.646 Y20.71 E0.4938
G1 X1.845 Y20.417 E0.51147
G1 X1.963 Y20.082 E0.52919
G1 X2.076 Y19.761 E0.54617
G1 X2.076 Y19.384 E0.56498
G1 X2.076 Y19.05 E0.58164
G1 X2.003 Y18.842 E0.59264
G1 X1.839 Y18.378 E0.61719
G1 X1.403 Y17.837 E0.65186
G1 X1.086 Y17.604 E0.67148
G1 X0.458 Y17.352 E0.70524
G1 X0.056 Y17.303 E0.72545
G1 X-.617 Y17.391 E0.75931
G1 X-1.253 Y17.712 E0.79485
G1 X-1.745 Y18.226 E0.83035
G1 X-2.002 Y18.791 E0.86132
G1 X-2.039 Y18.873 E0.8658
G1 X-2.084 Y19.41 E0.89269
G1 X-2.099 Y19.584 E0.9014
G1 X-2.064 Y19.72 E0.90841
G1 X-1.963 Y20.108 E0.92841
G1 X-1.92 Y20.273 E0.93692
G1 X-1.851 Y20.375 E0.94306
G1 X-1.632 Y20.699 E0.96257
G1 X-1.531 Y20.848 E0.97155
G1 X-1.429 Y20.937 E0.97831
G1 X-1.237 Y21.107 E0.9911
G1 X-1.172 Y21.139 E0.99472
G1 X-.816 Y21.319 E1.01462
G1 X-.632 Y21.412 E1.0249
G0 F3600 X-.665 Y21.506
G0 X-1.561 Y20.874
G0 X-2.138 Y19.587
G0 X-2.406 Y14.094
G0 X-2.771 Y12.999
G0 X-3.386 Y12.157
G0 X-4.377 Y11.356
G0 X-4.42 Y11.445
G1 F1800 X-4.908 Y11.25 E1.05112
G1 X-6.708 Y10.588 E1.1468
G1 X-8.397 Y9.742 E1.24105
G1 X-9.982 Y8.714 E1.3353
G1 X-11.442 Y7.515 E1.42955
G1 X-12.747 Y6.172 E1.52298
G1 X-13.904 Y4.681 E1.61714
G1 X-14.89 Y3.069 E1.71141
G1 X-15.686 Y1.368 E1.80511
G1 X-16.289 Y-.418 E1.89915
G1 X-16.687 Y-2.254 E1.99288
G1 X-16.881 Y-4.134 E2.08717
G1 X-16.863 Y-6.015 E2.18102
G1 X-16.636 Y-7.89 E2.27524
G1 X-16.203 Y-9.722 E2.36916
G1 X-15.571 Y-11.49 E2.46283
G1 X-14.738 Y-13.192 E2.55737
G1 X-13.727 Y-14.779 E2.65125
G1 X-12.547 Y-16.244 E2.7451
G1 X-11.211 Y-17.567 E2.8389
G1 X-9.732 Y-18.738 E2.93302
G1 X-8.125 Y-19.739 E3.02747
G1 X-6.435 Y-20.548 E3.12095
G1 X-4.648 Y-21.169 E3.21533
G1 X-2.821 Y-21.584 E3.3088
G1 X-.937 Y-21.795 E3.40338
G1 X0.937 Y-21.795 E3.49688
G1 X2.821 Y-21.584 E3.59146
G1 X4.648 Y-21.169 E3.68493
G1 X6.435 Y-20.548 E3.77931
G1 X8.125 Y-19.739 E3.87279
G1 X9.732 Y-18.738 E3.96725
G1 X11.211 Y-17.567 E4.06136
G1 X12.547 Y-16.244 E4.15517
G1 X13.727 Y-14.779 E4.24902
G1 X14.738 Y-13.192 E4.34289
G1 X15.571 Y-11.49 E4.43743
G1 X16.203 Y-9.722 E4.5311
G1 X16.636 Y-7.89 E4.62502
G1 X16.863 Y-6.015 E4.71925
G1 X16.881 Y-4.134 E4.81309
G1 X16.687 Y-2.254 E4.90739
G1 X16.289 Y-.418 E5.00111
G1 X15.686 Y1.368 E5.09516
G1 X14.89 Y3.069 E5.18885
G1 X13.904 Y4.681 E5.28313
G1 X12.747 Y6.172 E5.37728
G1 X11.442 Y7.515 E5.47071
G1 X9.982 Y8.714 E5.56496
G1 X8.397 Y9.742 E5.65921
G1 X6.708 Y10.588 E5.75346
G1 X4.901 Y11.252 E5.8495
G1 X4.405 Y11.45 E5.87615
G1 X3.914 Y11.744 E5.9047
G1 X3.476 Y12.112 E5.93324
G1 X3.1 Y12.545 E5.96185
G1 X2.798 Y13.031 E5.9904
G1 X2.579 Y13.554 E6.01869
G1 X2.444 Y14.116 E6.04752
G1 X2.4 Y14.656 E6.07455
G1 X2.4 Y18.829 E6.28274
G1 X2.4 Y19.05 E6.29274
G1 X2.4 Y19.384 E6.30624
G1 X2.368 Y19.784 E6.32179
G1 X2.366 Y19.799 E6.32255
G1 X2.358 Y19.832 E6.32401
G1 X2.267 Y20.188 E6.33817
G1 X2.114 Y20.535 E6.35284
G1 X2.108 Y20.549 E6.3536
G1 X2.09 Y20.576 E6.35522
G1 X1.894 Y20.877 E6.36847
G1 X1.839 Y20.937 E6.37174
G1 X1.629 Y21.165 E6.38372
G1 X1.31 Y21.414 E6.39938
G1 X1.241 Y21.451 E6.40267
G1 X0.959 Y21.604 E6.41499
G1 X0.591 Y21.73 E6.43012
G1 X0.491 Y21.746 E6.43424
G1 X0.198 Y21.795 E6.44564
G1 X-.198 Y21.795 E6.46106
G1 X-.297 Y21.779 E6.46516
G1 X-.591 Y21.73 E6.47622
G1 X-.725 Y21.685 E6.48165
G1 X-.959 Y21.604 E6.49126
G1 X-1.31 Y21.414 E6.50688
G1 X-1.413 Y21.334 E6.51209
G1 X-1.629 Y21.165 E6.5223
G1 X-1.742 Y21.043 E6.52862
G1 X-1.894 Y20.877 E6.53737
G1 X-2.108 Y20.549 E6.55269
G1 X-2.179 Y20.388 E6.55954
G1 X-2.267 Y20.188 E6.56799
G1 X-2.366 Y19.799 E6.58367
G1 X-2.381 Y19.608 E6.59111
G1 X-2.4 Y19.384 E6.59983
G1 X-2.4 Y18.873 E6.62134
G1 X-2.4 Y18.783 E6.62562
G1 X-2.4 Y14.649 E6.83187
G1 X-2.445 Y14.1 E6.85935
G1 X-2.58 Y13.552 E6.8875
G1 X-2.806 Y13.017 E6.91648
G1 X-3.109 Y12.532 E6.94501
G1 X-3.487 Y12.101 E6.97361
G1 X-3.921 Y11.738 E7.00184
G1 X-4.42 Y11.445 E7.03071
G0 F3600 X-4.377 Y11.356
G0 X4.143 Y9.64
G0 X5.901 Y9.021
G0 X7.569 Y8.19
G0 X9.125 Y7.16
G0 X10.539 Y5.947
G0 X11.796 Y4.57
G0 X12.668 Y3.338
G0 X13.809 Y1.431
G0 X13.719 Y1.39
G1 F1800 X14.391 Y-.345 E7.12353
G1 X14.844 Y-2.148 E7.21628
G1 X15.071 Y-3.997 E7.30922
G1 X15.1 Y-4.935 E7.35604
G1 X15.071 Y-5.861 E7.40226
G1 X14.844 Y-7.698 E7.49461
G1 X14.391 Y-9.5 E7.58731
G1 X13.719 Y-11.235 E7.68013
G1 X12.839 Y-12.872 E7.77285
G1 X11.765 Y-14.39 E7.86563
G1 X10.512 Y-15.764 E7.9584
G1 X9.101 Y-16.974 E8.05113
G1 X7.55 Y-18.001 E8.14394
G1 X5.886 Y-18.83 E8.23669
G1 X4.133 Y-19.447 E8.3294
G1 X2.316 Y-19.845 E8.4222
G1 X0.465 Y-20.017 E8.51495
G1 X-1.393 Y-19.96 E8.60769
G1 X-3.231 Y-19.674 E8.70049
G1 X-5.019 Y-19.165 E8.79324
G1 X-6.731 Y-18.44 E8.88599
G1 X-8.341 Y-17.511 E8.97873
G1 X-9.825 Y-16.39 E9.07151
G1 X-11.16 Y-15.096 E9.16427
G1 X-12.326 Y-13.648 E9.25702
G1 X-13.305 Y-12.067 E9.3498
G1 X-14.082 Y-10.377 E9.4426
G1 X-14.645 Y-8.606 E9.53531
G1 X-14.987 Y-6.778 E9.62809
G1 X-15.101 Y-4.922 E9.72086
G1 X-14.987 Y-3.067 E9.81358
G1 X-14.645 Y-1.239 E9.90636
G1 X-14.082 Y0.533 E9.99912
G1 X-13.305 Y2.222 E10.09188
G1 X-12.326 Y3.803 E10.18465
G1 X-11.16 Y5.251 E10.2774
G1 X-9.825 Y6.545 E10.37016
G1 X-8.341 Y7.666 E10.46294
G1 X-6.731 Y8.595 E10.55568
G1 X-5.019 Y9.32 E10.64844
G1 X-3.231 Y9.829 E10.74118
G1 X-1.393 Y10.115 E10.83399
G1 X0.465 Y10.172 E10.92672
G1 X2.316 Y10 E11.01947
G1 X4.133 Y9.602 E11.11227
G1 X5.886 Y8.985 E11.20499
G1 X7.55 Y8.156 E11.29774
G1 X9.101 Y7.129 E11.39054
G1 X10.512 Y5.919 E11.48328
G1 X11.765 Y4.545 E11.57605
G1 X12.839 Y3.027 E11.66882
G1 X13.719 Y1.39 E11.76154
G0 F3600 X13.355 Y1.222
;TYPE:WALL-OUTER
G1 F1800 X14.009 Y-.466 E11.85186
G1 X14.45 Y-2.221 E11.94214
G1 X14.672 Y-4.028 E12.03297
G1 X14.7 Y-4.935 E12.07824
G1 X14.672 Y-5.83 E12.12291
G1 X14.45 Y-7.624 E12.2131
G1 X14.009 Y-9.379 E12.30338
G1 X13.355 Y-11.067 E12.39369
G1 X12.498 Y-12.661 E12.48398
G1 X11.453 Y-14.139 E12.57429
G1 X10.233 Y-15.476 E12.66459
G1 X8.859 Y-16.654 E12.75488
G1 X7.35 Y-17.654 E12.8452
G1 X5.73 Y-18.461 E12.93549
G1 X4.023 Y-19.062 E13.02578
G1 X2.255 Y-19.449 E13.11607
G1 X0.453 Y-19.616 E13.20636
G1 X-1.356 Y-19.561 E13.29665
G1 X-3.145 Y-19.283 E13.38698
G1 X-4.886 Y-18.787 E13.47729
G1 X-6.552 Y-18.081 E13.56756
G1 X-8.12 Y-17.177 E13.65786
G1 X-9.564 Y-16.086 E13.74815
G1 X-10.864 Y-14.826 E13.83848
G1 X-11.999 Y-13.416 E13.92878
G1 X-12.952 Y-11.877 E14.01909
G1 X-13.708 Y-10.232 E14.10941
G1 X-14.256 Y-8.508 E14.19966
G1 X-14.589 Y-6.729 E14.28996
G1 X-14.7 Y-4.922 E14.38028
G1 X-14.589 Y-3.116 E14.47055
G1 X-14.256 Y-1.337 E14.56085
G1 X-13.708 Y0.388 E14.65115
G1 X-12.952 Y2.032 E14.74142
G1 X-11.999 Y3.571 E14.83173
G1 X-10.864 Y4.981 E14.92204
G1 X-9.564 Y6.241 E15.01236
G1 X-8.12 Y7.332 E15.10265
G1 X-6.552 Y8.236 E15.19295
G1 X-4.886 Y8.942 E15.28322
G1 X-3.145 Y9.438 E15.37354
G1 X-1.356 Y9.716 E15.46386
G1 X0.453 Y9.771 E15.55415
G1 X2.255 Y9.604 E15.64444
G1 X4.023 Y9.217 E15.73474
G1 X5.73 Y8.616 E15.82502
G1 X7.35 Y7.809 E15.91532
G1 X8.859 Y6.809 E16.00563
G1 X10.233 Y5.631 E16.09593
G1 X11.453 Y4.294 E16.18623
G1 X12.498 Y2.816 E16.27653
G1 X13.355 Y1.222 E16.36682
G0 F3600 X13.427 Y1.036
G0 X13.893 Y1.217
G0 X12.873 Y3.048
G0 X11.796 Y4.57
G0 X10.539 Y5.947
G0 X9.125 Y7.16
G0 X7.569 Y8.19
G0 X5.901 Y9.021
G0 X4.143 Y9.64
G0 X-4.343 Y11.375
G0 X-4.596 Y11.805
G1 F1800 X-5.051 Y11.624 E16.39125
G1 X-6.873 Y10.953 E16.48812
G1 X-8.598 Y10.089 E16.58437
G1 X-10.215 Y9.04 E16.68053
G1 X-11.715 Y7.808 E16.77738
G1 X-13.047 Y6.438 E16.87271
G1 X-14.234 Y4.908 E16.96932
G1 X-15.241 Y3.262 E17.06558
G1 X-16.059 Y1.513 E17.16191
G1 X-16.675 Y-.312 E17.25801
G1 X-17.083 Y-2.191 E17.35394
G1 X-17.281 Y-4.115 E17.45043
G1 X-17.263 Y-6.04 E17.54648
G1 X-17.03 Y-7.959 E17.64292
G1 X-16.585 Y-9.842 E17.73945
G1 X-15.942 Y-11.641 E17.83476
G1 X-15.088 Y-13.387 E17.93173
G1 X-14.053 Y-15.012 E18.02785
G1 X-12.845 Y-16.511 E18.1239
G1 X-11.473 Y-17.87 E18.22024
G1 X-9.963 Y-19.066 E18.31635
G1 X-8.317 Y-20.091 E18.41309
G1 X-6.59 Y-20.918 E18.50862
G1 X-4.759 Y-21.554 E18.60532
G1 X-2.884 Y-21.98 E18.70125
G1 X-.963 Y-22.195 E18.79768
G1 X0.963 Y-22.195 E18.89377
G1 X2.884 Y-21.98 E18.99021
G1 X4.759 Y-21.554 E19.08614
G1 X6.59 Y-20.918 E19.18284
G1 X8.317 Y-20.091 E19.27837
G1 X9.963 Y-19.066 E19.37511
G1 X11.473 Y-17.87 E19.47121
G1 X12.845 Y-16.511 E19.56756
G1 X14.053 Y-15.012 E19.6636
G1 X15.088 Y-13.387 E19.75972
G1 X15.942 Y-11.641 E19.85669
G1 X16.585 Y-9.842 E19.95201
G1 X17.03 Y-7.959 E20.04854
G1 X17.263 Y-6.04 E20.14498
G1 X17.281 Y-4.115 E20.24102
G1 X17.083 Y-2.191 E20.33752
G1 X16.675 Y-.312 E20.43345
G1 X16.059 Y1.513 E20.52954
G1 X15.241 Y3.262 E20.62587
G1 X14.234 Y4.908 E20.72214
G1 X13.047 Y6.438 E20.81875
G1 X11.715 Y7.808 E20.91408
G1 X10.215 Y9.04 E21.01092
G1 X8.598 Y10.089 E21.10708
G1 X6.873 Y10.953 E21.20334
G1 X5.044 Y11.626 E21.30057
G1 X4.583 Y11.81 E21.32533
G1 X4.147 Y12.071 E21.35068
G1 X3.757 Y12.398 E21.37607
G1 X3.423 Y12.783 E21.4015
G1 X3.155 Y13.215 E21.42686
G1 X2.96 Y13.679 E21.45197
G1 X2.84 Y14.179 E21.47763
G1 X2.8 Y14.672 E21.5023
G1 X2.8 Y19.405 E21.73844
G1 X2.762 Y19.864 E21.76141
G1 X2.647 Y20.317 E21.78473
G1 X2.461 Y20.739 E21.80774
G1 X2.21 Y21.124 E21.83067
G1 X1.899 Y21.463 E21.85362
G1 X1.53 Y21.75 E21.87694
G1 X1.124 Y21.97 E21.89998
G1 X0.686 Y22.12 E21.92308
G1 X0.233 Y22.195 E21.94599
G1 X-.233 Y22.195 E21.96923
G1 X-.686 Y22.12 E21.99214
G1 X-1.124 Y21.97 E22.01524
G1 X-1.53 Y21.75 E22.03828
G1 X-1.899 Y21.463 E22.0616
G1 X-2.21 Y21.124 E22.08455
G1 X-2.461 Y20.739 E22.10748
G1 X-2.647 Y20.317 E22.13049
G1 X-2.762 Y19.864 E22.15381
G1 X-2.8 Y19.405 E22.17678
G1 X-2.8 Y14.665 E22.41326
G1 X-2.841 Y14.165 E22.43829
G1 X-2.961 Y13.678 E22.46332
G1 X-3.162 Y13.202 E22.48909
G1 X-3.431 Y12.771 E22.51444
G1 X-3.767 Y12.388 E22.53986
G1 X-4.152 Y12.066 E22.5649
G1 X-4.596 Y11.805 E22.5906
G0 F3600 X-4.782 Y11.731
G0 X-4.596 Y11.268
G0 X-3.898 Y11.706
G0 X-3.077 Y12.509
G0 X-2.543 Y13.54
G0 X-2.361 Y14.648
G0 X-2.382 Y18.103
G0 X-1.964 Y20.386
G0 X-1.55 Y20.106
G1 F1800 X-1.228 Y20.582 E22.61927
G1 X-1.011 Y20.773 E22.63369
G1 X-.498 Y21.032 E22.66236
G1 X-.216 Y21.092 E22.67674
G1 X0.359 Y21.068 E22.70546
G1 X0.891 Y20.854 E22.73406
G1 X1.323 Y20.474 E22.76277
G1 X1.485 Y20.235 E22.77717
G1 X1.676 Y19.693 E22.80584
G1 X1.676 Y19.118 E22.83453
G1 X1.485 Y18.576 E22.8632
G1 X1.124 Y18.128 E22.8919
G1 X0.89 Y17.956 E22.90639
G1 X0.358 Y17.743 E22.93498
G1 X0.058 Y17.706 E22.95006
G1 X-.498 Y17.779 E22.97804
G1 X-1.012 Y18.038 E23.00676
G1 X-1.409 Y18.453 E23.03541
G1 X-1.646 Y18.976 E23.06405
G1 X-1.695 Y19.55 E23.0928
G1 X-1.55 Y20.106 E23.12146
G0 F3600 X-1.438 Y20.271
G0 X-1.852 Y20.551
G0 X-2.109 Y19.684
G0 X-2.01 Y17.938
;TYPE:SKIN
G1 F1800 X-2.01 Y14.633 E23.28635
G1 X-2.059 Y14.037 E23.31618
G1 X-2.209 Y13.429 E23.34743
G1 X-2.459 Y12.837 E23.37949
G1 X-2.795 Y12.298 E23.41118
G1 X-3.214 Y11.822 E23.44281
G1 X-3.695 Y11.418 E23.47415
G1 X-4.248 Y11.094 E23.50613
G1 X-4.768 Y10.886 E23.53407
G1 X-6.551 Y10.23 E23.62885
G1 X-8.208 Y9.399 E23.72133
G1 X-9.744 Y8.404 E23.81264
G1 X-11.194 Y7.213 E23.90625
G1 X-12.447 Y5.922 E23.99601
G1 X-13.581 Y4.46 E24.08832
G1 X-14.545 Y2.885 E24.18045
G1 X-15.326 Y1.219 E24.27224
G1 X-15.913 Y-.521 E24.36386
G1 X-16.301 Y-2.313 E24.45533
G1 X-16.491 Y-4.152 E24.54757
G1 X-16.473 Y-5.982 E24.63887
G1 X-16.25 Y-7.825 E24.73149
G1 X-15.826 Y-9.619 E24.82346
G1 X-15.216 Y-11.328 E24.91399
G1 X-14.395 Y-13.007 E25.00724
G1 X-13.41 Y-14.551 E25.09861
G1 X-12.261 Y-15.978 E25.19001
G1 X-10.951 Y-17.275 E25.28198
G1 X-9.506 Y-18.42 E25.37396
G1 X-7.932 Y-19.4 E25.46646
G1 X-6.291 Y-20.186 E25.55724
G1 X-4.54 Y-20.794 E25.64972
G1 X-2.762 Y-21.198 E25.74068
G1 X-.912 Y-21.405 E25.83355
G1 X0.912 Y-21.405 E25.92455
G1 X2.762 Y-21.198 E26.01743
G1 X4.54 Y-20.794 E26.10839
G1 X6.291 Y-20.186 E26.20087
G1 X7.932 Y-19.4 E26.29164
G1 X9.506 Y-18.42 E26.38415
G1 X10.951 Y-17.275 E26.47613
G1 X12.261 Y-15.978 E26.5681
G1 X13.41 Y-14.551 E26.6595
G1 X14.395 Y-13.007 E26.75087
G1 X15.216 Y-11.328 E26.84411
G1 X15.826 Y-9.619 E26.93465
G1 X16.25 Y-7.825 E27.02661
G1 X16.473 Y-5.982 E27.11923
G1 X16.491 Y-4.152 E27.21054
G1 X16.301 Y-2.313 E27.30277
G1 X15.913 Y-.521 E27.39425
G1 X15.326 Y1.219 E27.48586
G1 X14.545 Y2.885 E27.57766
G1 X13.581 Y4.46 E27.66979
G1 X12.447 Y5.922 E27.7621
G1 X11.194 Y7.213 E27.85185
G1 X9.744 Y8.404 E27.94547
G1 X8.208 Y9.399 E28.03677
G1 X6.551 Y10.23 E28.12925
G1 X4.761 Y10.888 E28.2244
G1 X4.231 Y11.099 E28.25286
G1 X3.687 Y11.426 E28.28453
G1 X3.201 Y11.833 E28.31615
G1 X2.786 Y12.313 E28.34781
G1 X2.451 Y12.852 E28.37947
G1 X2.207 Y13.433 E28.41091
G1 X2.058 Y14.054 E28.44277
G1 X2.01 Y14.64 E28.4721
G1 X2.01 Y17.969 E28.63819
G1 X1.674 Y17.553 E28.66487
G1 X1.277 Y17.261 E28.68945
G1 X0.556 Y16.971 E28.72823
G1 X0.054 Y16.909 E28.75346
G1 X-.734 Y17.013 E28.79312
G1 X-1.489 Y17.394 E28.83531
G1 X-2.01 Y17.938 E28.87289
G0 F3600 X-1.43 Y10.505
G1 F1800 X0.477 Y10.562 E28.96807
G1 X2.376 Y10.386 E29.06322
G1 X4.24 Y9.978 E29.15841
G1 X6.038 Y9.345 E29.25351
G1 X7.745 Y8.495 E29.34865
G1 X9.337 Y7.441 E29.4439
G1 X10.785 Y6.2 E29.53905
G1 X12.069 Y4.79 E29.63419
G1 X13.171 Y3.233 E29.72936
G1 X14.074 Y1.554 E29.82447
G1 X14.763 Y-.226 E29.91969
G1 X15.228 Y-2.076 E30.01486
G1 X15.461 Y-3.967 E30.10992
G1 X15.49 Y-4.935 E30.15823
G1 X15.461 Y-5.891 E30.20595
G1 X15.228 Y-7.77 E30.30041
G1 X14.763 Y-9.619 E30.39553
G1 X14.074 Y-11.399 E30.49076
G1 X13.171 Y-13.078 E30.58587
G1 X12.069 Y-14.635 E30.68103
G1 X10.785 Y-16.045 E30.77618
G1 X9.337 Y-17.286 E30.87132
G1 X7.745 Y-18.34 E30.96657
G1 X6.038 Y-19.19 E31.06171
G1 X4.24 Y-19.823 E31.15681
G1 X2.376 Y-20.231 E31.25201
G1 X0.477 Y-20.407 E31.34715
G1 X-1.43 Y-20.35 E31.44234
